tools/color/sRGB_to_3513.cube
# sRGB in -> f3513.cube print look out
# exposure -0.30 stops, grey_cv=445.0
LUT_3D_SIZE 33
DOMAIN_MIN 0 0 0
DOMAIN_MAX 1 1 1
0.029247 0.032696 0.032628
0.030135 0.032715 0.033259
0.031343 0.032848 0.033616
0.030300 0.033144 0.033992
0.027592 0.033613 0.034258
0.031681 0.034073 0.034101
0.049543 0.034586 0.033536
0.062522 0.037730 0.034200
0.074162 0.042163 0.034903
0.090368 0.045691 0.034854
0.111754 0.047812 0.033924
0.138245 0.048424 0.031946
0.163130 0.048488 0.026089
0.186662 0.048363 0.018370
0.209084 0.048149 0.007093
0.231339 0.047569 0.000957
0.253594 0.046593 0.000280
0.275518 0.043427 0.000005
0.296944 0.038847 0.000002
0.317602 0.031483 0.000000
0.337541 0.021728 0.000000
0.356498 0.013436 0.000000
0.374218 0.008643 0.000000
0.391260 0.004034 0.000000
0.406720 0.002077 0.000000
0.421304 0.001029 0.000000
0.435381 0.000018 0.000000
0.448737 0.000013 0.000000
0.461653 0.000026 0.000000
0.474159 0.000038 0.000000
0.485697 0.000028 0.000000
0.496847 0.000016 0.000000
0.507674 0.000005 0.000000
0.029344 0.036375 0.033267
0.030485 0.036231 0.033887
0.031805 0.036298 0.034276
0.030794 0.036600 0.034738
0.028005 0.037184 0.035156
0.032047 0.037822 0.035165
0.050389 0.038569 0.034746
0.064254 0.042049 0.035518
0.076462 0.046493 0.036018
0.092944 0.050080 0.035959
0.114484 0.052382 0.035094
0.141326 0.053224 0.032617
0.166573 0.053667 0.026335
0.190471 0.053962 0.018290
0.213308 0.054189 0.006967
0.235956 0.054172 0.000847
0.258584 0.053893 0.000250
0.280890 0.052243 0.000007
0.302700 0.049704 0.000002
0.323665 0.045041 0.000000
0.343844 0.038550 0.000000
0.362948 0.031424 0.000000
0.380559 0.021893 0.000000
0.397496 0.012728 0.000000
0.412978 0.007523 0.000000
0.427626 0.003728 0.000000
0.441766 0.000065 0.000000
0.455224 0.000047 0.000000
0.468239 0.000092 0.000000
0.480842 0.000137 0.000000
0.492431 0.000100 0.000000
0.503628 0.000058 0.000000
0.514501 0.000017 0.000000
0.028762 0.041817 0.034329
0.030093 0.041576 0.034891
0.031609 0.041643 0.035298
0.030729 0.041918 0.035796
0.027960 0.042477 0.036286
0.032156 0.043311 0.036473
0.051324 0.044672 0.036332
0.066401 0.048233 0.036719
0.078738 0.052314 0.036898
0.095462 0.055814 0.036781
0.117560 0.058356 0.035952
0.144941 0.059481 0.033110
0.170704 0.060319 0.025777
0.195111 0.061097 0.016874
0.218499 0.062090 0.006352
0.241611 0.062800 0.000696
0.264610 0.063213 0.000205
0.287264 0.062418 0.000006
0.309400 0.060831 0.000002
0.330685 0.058041 0.000000
0.351179 0.054216 0.000000
0.370541 0.049787 0.000000
0.388272 0.043265 0.000000
0.405323 0.036993 0.000000
0.420672 0.031024 0.000000
0.435109 0.025291 0.000000
0.449045 0.019758 0.000000
0.462326 0.013135 0.000000
0.475170 0.006706 0.000000
0.487608 0.000480 0.000000
0.499283 0.000073 0.000000
0.510581 0.000084 0.000000
0.521552 0.000094 0.000000
0.028603 0.047818 0.035993
0.030066 0.047500 0.036449
0.031731 0.047550 0.036845
0.030990 0.047771 0.037366
0.028337 0.048268 0.037948
0.032771 0.049242 0.038344
0.052720 0.051095 0.038470
0.068987 0.054686 0.038271
0.081789 0.058661 0.038272
0.099021 0.062261 0.037965
0.121808 0.065128 0.036867
0.149845 0.066704 0.033839
0.176259 0.068060 0.025537
0.201303 0.069403 0.015783
0.225354 0.071130 0.005881
0.249023 0.072545 0.000582
0.272472 0.073639 0.000172
0.295539 0.073671 0.000005
0.318059 0.072996 0.000002
0.339726 0.071763 0.000000
0.360598 0.070050 0.000000
0.380292 0.067942 0.000000
0.398251 0.064532 0.000000
0.415522 0.061252 0.000000
0.430866 0.056065 0.000000
0.445224 0.050377 0.000000
0.459084 0.044887 0.000000
0.472157 0.035131 0.000000
0.484797 0.025612 0.000000
0.497037 0.016395 0.000000
0.508619 0.011286 0.000000
0.519834 0.006604 0.000000
0.530724 0.002059 0.000000
0.027839 0.054044 0.038128
0.029857 0.053666 0.038408
0.031846 0.053675 0.038755
0.031075 0.053832 0.039286
0.028134 0.054271 0.039987
0.033108 0.055296 0.040621
0.054355 0.057325 0.040932
0.071644 0.060983 0.040201
0.085501 0.065319 0.040155
0.103637 0.069323 0.039431
0.127175 0.072606 0.037662
0.155914 0.074764 0.034552
0.183060 0.076660 0.025378
0.208833 0.078518 0.014831
0.233635 0.080766 0.005463
0.257931 0.082694 0.000476
0.281879 0.084293 0.000141
0.305403 0.085045 0.000004
0.328347 0.085224 0.000001
0.350423 0.084881 0.000000
0.371688 0.084087 0.000000
0.391750 0.082981 0.000000
0.410030 0.080894 0.000000
0.427610 0.078888 0.000000
0.443183 0.076048 0.000000
0.457741 0.073004 0.000000
0.471793 0.070065 0.000000
0.484782 0.064057 0.000000
0.497337 0.058189 0.000000
0.509495 0.052505 0.000000
0.520792 0.041390 0.000000
0.531716 0.030204 0.000000
0.542323 0.019342 0.000000
0.021446 0.063184 0.040025
0.025448 0.062694 0.040056
0.028474 0.062675 0.040349
0.027270 0.062835 0.040893
0.022780 0.063335 0.041719
0.029294 0.064514 0.042612
0.055014 0.066786 0.043057
0.073875 0.070734 0.042324
0.089128 0.075404 0.041735
0.108418 0.079820 0.040353
0.132887 0.083570 0.037915
0.162397 0.086204 0.034003
0.190399 0.088485 0.023081
0.217050 0.090744 0.011291
0.242805 0.093625 0.003975
0.267850 0.096086 0.000155
0.292335 0.098116 0.000047
0.316341 0.099486 0.000002
0.339725 0.100400 0.000001
0.362217 0.100760 0.000000
0.383878 0.100638 0.000000
0.404313 0.100301 0.000000
0.422933 0.099323 0.000000
0.440840 0.098382 0.000000
0.456681 0.097093 0.000000
0.471480 0.095720 0.000000
0.485765 0.094395 0.000000
0.498945 0.091602 0.000000
0.511684 0.088873 0.000000
0.524020 0.086230 0.000000
0.535278 0.081970 0.000000
0.546149 0.077715 0.000000
0.556704 0.073584 0.000000
0.004546 0.077604 0.041989
0.009223 0.076882 0.041800
0.011996 0.076798 0.041883
0.010613 0.077081 0.042418
0.006805 0.077931 0.043475
0.016643 0.079441 0.044346
0.052942 0.082020 0.044421
0.074469 0.086243 0.043746
0.091818 0.091113 0.041985
0.112521 0.095739 0.039671
0.137944 0.099765 0.036417
0.168538 0.102844 0.030336
0.197855 0.106018 0.018048
0.225817 0.109291 0.005999
0.252699 0.113205 0.002052
0.278601 0.116570 0.000014
0.303662 0.119375 0.000004
0.328131 0.121296 0.000000
0.351895 0.122605 0.000000
0.374780 0.123491 0.000000
0.396844 0.124008 0.000000
0.417663 0.124404 0.000000
0.436642 0.124489 0.000000
0.454895 0.124570 0.000000
0.471007 0.124085 0.000000
0.486047 0.123426 0.000000
0.500564 0.122790 0.000000
0.513955 0.121223 0.000000
0.526897 0.119690 0.000000
0.539429 0.118206 0.000000
0.550870 0.116001 0.000000
0.561918 0.113806 0.000000
0.572645 0.111675 0.000000
0.000714 0.092689 0.044433
0.001534 0.091699 0.044304
0.002016 0.091580 0.044331
0.001774 0.092045 0.044853
0.001442 0.093351 0.045871
0.007562 0.095323 0.046306
0.041769 0.098165 0.045546
0.073013 0.102678 0.043709
0.093863 0.107822 0.042033
0.116328 0.112777 0.038842
0.143355 0.117213 0.033333
0.175140 0.120845 0.023700
0.205709 0.124818 0.011911
0.234872 0.128915 0.001786
0.262785 0.133521 0.000609
0.289566 0.137580 0.000003
0.315349 0.141086 0.000001
0.340395 0.143634 0.000000
0.364633 0.145514 0.000000
0.387975 0.147020 0.000000
0.410480 0.148197 0.000000
0.431711 0.149210 0.000000
0.451054 0.149837 0.000000
0.469656 0.150441 0.000000
0.486066 0.150451 0.000000
0.501379 0.150267 0.000000
0.516161 0.150090 0.000000
0.529797 0.149245 0.000000
0.542976 0.148416 0.000000
0.555737 0.147613 0.000000
0.567375 0.146319 0.000000
0.578613 0.145025 0.000000
0.589524 0.143770 0.000000
0.000000 0.106952 0.047131
0.000000 0.105709 0.047113
0.000000 0.105570 0.047119
0.000000 0.106188 0.047523
0.000144 0.107880 0.048271
0.004049 0.110321 0.048223
0.033420 0.113447 0.046481
0.071461 0.118251 0.043984
0.095509 0.123662 0.040963
0.119868 0.128929 0.036605
0.148469 0.133773 0.029713
0.181547 0.138025 0.016689
0.213648 0.142964 0.007117
0.244256 0.148022 0.000335
0.273069 0.153206 0.000116
0.300582 0.157733 0.000003
0.326923 0.161595 0.000001
0.352511 0.164616 0.000000
0.377274 0.167039 0.000000
0.401104 0.169085 0.000000
0.424064 0.170799 0.000000
0.445716 0.172295 0.000000
0.465420 0.173290 0.000000
0.484370 0.174246 0.000000
0.501098 0.174705 0.000000
0.516712 0.174991 0.000000
0.531785 0.175267 0.000000
0.545678 0.174884 0.000000
0.559105 0.174501 0.000000
0.572107 0.174131 0.000000
0.583947 0.173284 0.000000
0.595379 0.172428 0.000000
0.606478 0.171597 0.000000
0.000000 0.121845 0.048640
0.000000 0.120420 0.048861
0.000000 0.120283 0.048868
0.000000 0.121032 0.049106
0.000000 0.123033 0.049481
0.002858 0.125889 0.048907
0.027631 0.129304 0.046035
0.068657 0.134395 0.042971
0.095783 0.140154 0.038626
0.122429 0.145829 0.032274
0.152703 0.151203 0.023350
0.187530 0.156335 0.009583
0.221194 0.162208 0.003229
0.253152 0.168107 0.000032
0.282800 0.173751 0.000014
0.311012 0.178668 0.000003
0.337913 0.182843 0.000001
0.364040 0.186269 0.000000
0.389323 0.189154 0.000000
0.413623 0.191640 0.000000
0.437009 0.193774 0.000000
0.459059 0.195660 0.000000
0.479113 0.196990 0.000000
0.498399 0.198269 0.000000
0.515435 0.199112 0.000000
0.531340 0.199795 0.000000
0.546693 0.200454 0.000000
0.560828 0.200374 0.000000
0.574488 0.200285 0.000000
0.587716 0.200198 0.000000
0.599761 0.199675 0.000000
0.611389 0.199136 0.000000
0.622680 0.198613 0.000000
0.000000 0.137682 0.048791
0.000000 0.136146 0.049249
0.000000 0.136033 0.049247
0.000000 0.136895 0.049336
0.000000 0.139139 0.049374
0.002217 0.142339 0.048267
0.021436 0.146029 0.044221
0.063242 0.151399 0.039952
0.094065 0.157618 0.033960
0.123794 0.163887 0.025133
0.156066 0.170007 0.014376
0.192944 0.176217 0.003448
0.228093 0.182895 0.000463
0.261243 0.189437 0.000070
0.291706 0.195464 0.000025
0.320635 0.200754 0.000002
0.348152 0.205297 0.000000
0.374811 0.209096 0.000000
0.400563 0.212353 0.000000
0.425280 0.215184 0.000000
0.449038 0.217637 0.000000
0.471442 0.219839 0.000000
0.491827 0.221502 0.000000
0.511432 0.223101 0.000000
0.528745 0.224258 0.000000
0.544909 0.225245 0.000000
0.560512 0.226198 0.000000
0.574867 0.226343 0.000000
0.588740 0.226471 0.000000
0.602175 0.226594 0.000000
0.614416 0.226363 0.000000
0.626235 0.226115 0.000000
0.637710 0.225874 0.000000
0.000000 0.154910 0.047668
0.000000 0.153320 0.047989
0.000000 0.153247 0.047905
0.000000 0.154203 0.047965
0.000000 0.156622 0.047941
0.000821 0.160082 0.046362
0.007941 0.164004 0.041305
0.051551 0.169645 0.033479
0.088657 0.176496 0.023291
0.123476 0.183774 0.012453
0.158695 0.191100 0.003361
0.197477 0.198414 0.000937
0.233991 0.205660 0.000203
0.268250 0.212589 0.000038
0.299573 0.218994 0.000013
0.329288 0.224687 0.000000
0.357518 0.229662 0.000000
0.384672 0.233803 0.000000
0.410768 0.237337 0.000000
0.435794 0.240405 0.000000
0.459827 0.243062 0.000000
0.482506 0.245488 0.000000
0.503188 0.247455 0.000000
0.523079 0.249347 0.000000
0.540614 0.250724 0.000000
0.556974 0.251901 0.000000
0.572766 0.253037 0.000000
0.587326 0.253403 0.000000
0.601399 0.253744 0.000000
0.615026 0.254074 0.000000
0.627433 0.254067 0.000000
0.639412 0.254037 0.000000
0.651043 0.254008 0.000000
0.000000 0.171424 0.044673
0.000000 0.169786 0.045061
0.000000 0.169725 0.044870
0.000000 0.170721 0.044727
0.000004 0.173228 0.044411
0.000267 0.176867 0.042296
0.002406 0.181067 0.035074
0.038934 0.187178 0.022328
0.081412 0.195039 0.012145
0.121985 0.203453 0.004838
0.160280 0.211798 0.000429
0.200922 0.219741 0.000198
0.238909 0.227459 0.000082
0.274413 0.234798 0.000015
0.306677 0.241604 0.000005
0.337133 0.247657 0.000000
0.365895 0.252952 0.000000
0.393455 0.257363 0.000000
0.419866 0.261132 0.000000
0.445178 0.264431 0.000000
0.469472 0.267314 0.000000
0.492387 0.269950 0.000000
0.513257 0.272102 0.000000
0.533328 0.274170 0.000000
0.551039 0.275707 0.000000
0.567570 0.277035 0.000000
0.583527 0.278316 0.000000
0.598265 0.278879 0.000000
0.612509 0.279411 0.000000
0.626303 0.279926 0.000000
0.638858 0.280072 0.000000
0.650980 0.280190 0.000000
0.662750 0.280303 0.000000
0.000000 0.187189 0.041057
0.000000 0.185510 0.041544
0.000000 0.185457 0.041234
0.000000 0.186477 0.040836
0.000008 0.189045 0.040030
0.000034 0.192838 0.036838
0.000001 0.197381 0.026649
0.025548 0.204121 0.011042
0.072971 0.213037 0.002824
0.119718 0.222513 0.000051
0.161348 0.231729 0.000110
0.203829 0.240149 0.000049
0.243248 0.248296 0.000018
0.279963 0.256036 0.000000
0.313164 0.263232 0.000000
0.344342 0.269621 0.000000
0.373604 0.275197 0.000000
0.401542 0.279853 0.000000
0.428247 0.283839 0.000000
0.453824 0.287355 0.000000
0.478356 0.290453 0.000000
0.501485 0.293282 0.000000
0.522511 0.295577 0.000000
0.542731 0.297784 0.000000
0.560597 0.299456 0.000000
0.577280 0.300915 0.000000
0.593384 0.302323 0.000000
0.608282 0.303056 0.000000
0.622682 0.303754 0.000000
0.636626 0.304430 0.000000
0.649319 0.304703 0.000000
0.661574 0.304942 0.000000
0.673473 0.305173 0.000000
0.000000 0.202399 0.036913
0.000000 0.200695 0.037379
0.000000 0.200667 0.036920
0.000000 0.201728 0.036254
0.000003 0.204363 0.034369
0.000011 0.208331 0.027753
0.000000 0.213470 0.012403
0.008687 0.221310 0.004282
0.060990 0.231081 0.000963
0.115466 0.241247 0.000023
0.161727 0.251048 0.000043
0.206206 0.259974 0.000018
0.246900 0.268544 0.000006
0.284616 0.276666 0.000000
0.318732 0.284210 0.000000
0.350695 0.290926 0.000000
0.380609 0.296807 0.000000
0.408974 0.301717 0.000000
0.435950 0.305921 0.000000
0.461757 0.309624 0.000000
0.486483 0.312884 0.000000
0.509798 0.315869 0.000000
0.531010 0.318313 0.000000
0.551409 0.320664 0.000000
0.569413 0.322463 0.000000
0.586218 0.324039 0.000000
0.602439 0.325561 0.000000
0.617477 0.326403 0.000000
0.632013 0.327205 0.000000
0.646089 0.327983 0.000000
0.658915 0.328378 0.000000
0.671300 0.328735 0.000000
0.683325 0.329082 0.000000
0.000000 0.217401 0.027144
0.000000 0.215702 0.027469
0.000000 0.215742 0.027027
0.000000 0.216910 0.026376
0.000000 0.219722 0.024420
0.000000 0.224038 0.017752
0.000000 0.229874 0.003811
0.000000 0.238602 0.000600
0.051115 0.249052 0.000004
0.109480 0.259826 0.000006
0.161242 0.270197 0.000006
0.207880 0.279614 0.000001
0.250083 0.288611 0.000000
0.289001 0.297121 0.000000
0.324006 0.305018 0.000000
0.356683 0.312049 0.000000
0.387130 0.318211 0.000000
0.415916 0.323370 0.000000
0.443234 0.327800 0.000000
0.469325 0.331702 0.000000
0.494286 0.335139 0.000000
0.517814 0.338286 0.000000
0.539191 0.340867 0.000000
0.559751 0.343349 0.000000
0.577911 0.345279 0.000000
0.594866 0.346984 0.000000
0.611234 0.348630 0.000000
0.626411 0.349591 0.000000
0.641082 0.350510 0.000000
0.655289 0.351400 0.000000
0.668226 0.351896 0.000000
0.680716 0.352351 0.000000
0.692844 0.352793 0.000000
0.000000 0.232301 0.011270
0.000000 0.230638 0.011325
0.000000 0.230795 0.011076
0.000000 0.232141 0.010747
0.000000 0.235248 0.009798
0.000000 0.240101 0.006690
0.000000 0.246748 0.001206
0.000000 0.256141 0.000186
0.043420 0.267090 0.000002
0.101591 0.278389 0.000002
0.159827 0.289317 0.000002
0.208814 0.299214 0.000000
0.252790 0.308644 0.000000
0.293134 0.317553 0.000000
0.329009 0.325809 0.000000
0.362330 0.333149 0.000000
0.393185 0.339566 0.000000
0.422390 0.344972 0.000000
0.450128 0.349638 0.000000
0.476565 0.353754 0.000000
0.501805 0.357383 0.000000
0.525573 0.360702 0.000000
0.547099 0.363405 0.000000
0.567800 0.366005 0.000000
0.586136 0.368073 0.000000
0.603275 0.369920 0.000000
0.619820 0.371702 0.000000
0.635138 0.372797 0.000000
0.649944 0.373845 0.000000
0.664281 0.374859 0.000000
0.677304 0.375436 0.000000
0.689875 0.375966 0.000000
0.702081 0.376480 0.000000
0.000000 0.247937 0.003482
0.000000 0.246346 0.003424
0.000000 0.246655 0.003329
0.000000 0.248199 0.003209
0.000000 0.251560 0.002819
0.000000 0.256808 0.001609
0.000000 0.264024 0.000113
0.000062 0.273994 0.000018
0.028556 0.285427 0.000003
0.086973 0.297236 0.000000
0.158182 0.308698 0.000000
0.209344 0.319071 0.000000
0.255008 0.328931 0.000000
0.296740 0.338236 0.000000
0.333524 0.346850 0.000000
0.367609 0.354515 0.000000
0.399077 0.361223 0.000000
0.428765 0.366886 0.000000
0.456896 0.371784 0.000000
0.483672 0.376106 0.000000
0.509204 0.379916 0.000000
0.533243 0.383404 0.000000
0.555000 0.386259 0.000000
0.575924 0.389005 0.000000
0.594446 0.391211 0.000000
0.611755 0.393190 0.000000
0.628463 0.395101 0.000000
0.643887 0.396292 0.000000
0.658795 0.397432 0.000000
0.673231 0.398537 0.000000
0.686341 0.399194 0.000000
0.698996 0.399802 0.000000
0.711283 0.400393 0.000000
0.000000 0.263865 0.001160
0.000000 0.262366 0.001091
0.000000 0.262851 0.001125
0.000000 0.264601 0.001137
0.000000 0.268187 0.001001
0.000000 0.273730 0.000560
0.000000 0.281348 0.000037
0.000164 0.291829 0.000016
0.009124 0.303729 0.000005
0.068076 0.316033 0.000000
0.156404 0.328005 0.000000
0.209600 0.338846 0.000000
0.256872 0.349129 0.000000
0.299949 0.358824 0.000000
0.337659 0.367791 0.000000
0.372577 0.375786 0.000000
0.404785 0.382804 0.000000
0.434995 0.388729 0.000000
0.463495 0.393855 0.000000
0.490601 0.398373 0.000000
0.516428 0.402354 0.000000
0.540754 0.406008 0.000000
0.562796 0.409033 0.000000
0.583994 0.411942 0.000000
0.602707 0.414284 0.000000
0.620173 0.416387 0.000000
0.637034 0.418418 0.000000
0.652541 0.419680 0.000000
0.667527 0.420888 0.000000
0.682040 0.422058 0.000000
0.695235 0.422796 0.000000
0.707974 0.423483 0.000000
0.720343 0.424151 0.000000
0.000000 0.279490 0.000061
0.000000 0.278088 0.000006
0.000000 0.278723 0.000076
0.000000 0.280658 0.000133
0.000000 0.284455 0.000122
0.000000 0.290273 0.000067
0.000000 0.298264 0.000005
0.000162 0.309241 0.000012
0.000071 0.321650 0.000005
0.057621 0.334429 0.000000
0.152080 0.346849 0.000000
0.209013 0.358151 0.000000
0.258362 0.368851 0.000000
0.302858 0.378930 0.000000
0.341568 0.388251 0.000000
0.377324 0.396568 0.000000
0.410202 0.403877 0.000000
0.440934 0.410054 0.000000
0.469851 0.415402 0.000000
0.497331 0.420117 0.000000
0.523493 0.424274 0.000000
0.548129 0.428094 0.000000
0.570441 0.431270 0.000000
0.591899 0.434324 0.000000
0.610798 0.436789 0.000000
0.628425 0.439004 0.000000
0.645439 0.441142 0.000000
0.661039 0.442483 0.000000
0.676114 0.443766 0.000000
0.690713 0.445008 0.000000
0.703976 0.445810 0.000000
0.716779 0.446558 0.000000
0.729209 0.447285 0.000000
0.000000 0.294814 0.000026
0.000000 0.293512 0.000002
0.000000 0.294274 0.000032
0.000000 0.296374 0.000056
0.000000 0.300370 0.000058
0.000000 0.306443 0.000056
0.000000 0.314783 0.000011
0.000072 0.326241 0.000006
0.000031 0.339193 0.000002
0.054507 0.352432 0.000000
0.145560 0.365243 0.000000
0.207698 0.376999 0.000000
0.259523 0.388108 0.000000
0.305499 0.398569 0.000000
0.345271 0.408241 0.000000
0.381865 0.416872 0.000000
0.415351 0.424455 0.000000
0.446606 0.430874 0.000000
0.475982 0.436439 0.000000
0.503871 0.441352 0.000000
0.530399 0.445688 0.000000
0.555367 0.449673 0.000000
0.577934 0.452984 0.000000
0.599638 0.456167 0.000000
0.618723 0.458742 0.000000
0.636509 0.461059 0.000000
0.653679 0.463295 0.000000
0.669380 0.464719 0.000000
0.684553 0.466083 0.000000
0.699246 0.467404 0.000000
0.712560 0.468254 0.000000
0.725409 0.469048 0.000000
0.737884 0.469818 0.000000
0.000000 0.309234 0.000002
0.000000 0.308030 0.000002
0.000000 0.308919 0.000002
0.000000 0.311181 0.000001
0.000000 0.315375 0.000011
0.000000 0.321699 0.000043
0.000000 0.330378 0.000014
0.000005 0.342298 0.000002
0.000002 0.355767 0.000000
0.051246 0.369445 0.000000
0.138724 0.382633 0.000000
0.206274 0.394821 0.000000
0.260567 0.406321 0.000000
0.307954 0.417142 0.000000
0.348726 0.427149 0.000000
0.386121 0.436079 0.000000
0.420200 0.443928 0.000000
0.451961 0.450580 0.000000
0.481778 0.456355 0.000000
0.510062 0.461460 0.000000
0.536945 0.465972 0.000000
0.562233 0.470118 0.000000
0.585048 0.473563 0.000000
0.606990 0.476876 0.000000
0.626254 0.479560 0.000000
0.644196 0.481977 0.000000
0.661516 0.484309 0.000000
0.677318 0.485815 0.000000
0.692588 0.487257 0.000000
0.707375 0.488654 0.000000
0.720739 0.489555 0.000000
0.733635 0.490396 0.000000
0.746155 0.491213 0.000000
0.000000 0.322263 0.000009
0.000000 0.321163 0.000009
0.000000 0.322184 0.000008
0.000000 0.324616 0.000006
0.000000 0.329019 0.000008
0.000000 0.335602 0.000024
0.000000 0.344622 0.000007
0.000003 0.356984 0.000001
0.000001 0.370937 0.000000
0.047296 0.385035 0.000000
0.130422 0.398591 0.000000
0.204420 0.411184 0.000000
0.261367 0.423049 0.000000
0.310082 0.434209 0.000000
0.351758 0.444526 0.000000
0.389910 0.453740 0.000000
0.424592 0.461847 0.000000
0.456852 0.468730 0.000000
0.487095 0.474713 0.000000
0.515766 0.480011 0.000000
0.543001 0.484700 0.000000
0.568605 0.489012 0.000000
0.591665 0.492601 0.000000
0.613841 0.496052 0.000000
0.633282 0.498852 0.000000
0.651380 0.501374 0.000000
0.668849 0.503809 0.000000
0.684758 0.505395 0.000000
0.700131 0.506914 0.000000
0.715017 0.508386 0.000000
0.728437 0.509346 0.000000
0.741383 0.510245 0.000000
0.753953 0.511117 0.000000
0.000000 0.334793 0.000016
0.000000 0.333792 0.000015
0.000000 0.334941 0.000014
0.000000 0.337538 0.000011
0.000000 0.342140 0.000006
0.000000 0.348973 0.000005
0.000000 0.358321 0.000001
0.000001 0.371108 0.000000
0.000000 0.385526 0.000000
0.043496 0.400029 0.000000
0.122438 0.413938 0.000000
0.202637 0.426920 0.000000
0.262137 0.439137 0.000000
0.312128 0.450622 0.000000
0.354675 0.461238 0.000000
0.393554 0.470725 0.000000
0.428816 0.479081 0.000000
0.461556 0.486185 0.000000
0.492208 0.492368 0.000000
0.521250 0.497851 0.000000
0.548824 0.502711 0.000000
0.574734 0.507182 0.000000
0.598028 0.510910 0.000000
0.620430 0.514494 0.000000
0.640042 0.517405 0.000000
0.658288 0.520030 0.000000
0.675901 0.522563 0.000000
0.691914 0.524225 0.000000
0.707385 0.525819 0.000000
0.722367 0.527362 0.000000
0.735841 0.528380 0.000000
0.748836 0.529334 0.000000
0.761453 0.530260 0.000000
0.000000 0.345558 0.000013
0.000000 0.344672 0.000012
0.000000 0.345963 0.000011
0.000000 0.348741 0.000008
0.000000 0.353561 0.000004
0.000000 0.360657 0.000000
0.000000 0.370330 0.000000
0.000000 0.383518 0.000000
0.000000 0.398367 0.000000
0.036604 0.413250 0.000000
0.108095 0.427493 0.000000
0.200241 0.440833 0.000000
0.263168 0.453367 0.000000
0.313887 0.465145 0.000000
0.357179 0.476029 0.000000
0.396688 0.485765 0.000000
0.432460 0.494352 0.000000
0.465621 0.501672 0.000000
0.496627 0.508059 0.000000
0.526000 0.513733 0.000000
0.553881 0.518776 0.000000
0.580075 0.523419 0.000000
0.603612 0.527301 0.000000
0.626247 0.531035 0.000000
0.646048 0.534075 0.000000
0.664463 0.536819 0.000000
0.682239 0.539467 0.000000
0.698338 0.541215 0.000000
0.713891 0.542890 0.000000
0.728953 0.544513 0.000000
0.742505 0.545602 0.000000
0.755577 0.546623 0.000000
0.768270 0.547615 0.000000
0.000000 0.355498 0.000006
0.000000 0.354729 0.000006
0.000000 0.356163 0.000006
0.000000 0.359125 0.000004
0.000000 0.364163 0.000002
0.000000 0.371518 0.000000
0.000000 0.381508 0.000000
0.000000 0.395081 0.000000
0.000000 0.410340 0.000000
0.028865 0.425585 0.000000
0.092017 0.440148 0.000000
0.197702 0.453827 0.000000
0.264261 0.466661 0.000000
0.315513 0.478713 0.000000
0.359491 0.489849 0.000000
0.399582 0.499821 0.000000
0.435831 0.508628 0.000000
0.469382 0.516158 0.000000
0.500717 0.522744 0.000000
0.530398 0.528609 0.000000
0.558570 0.533833 0.000000
0.585035 0.538647 0.000000
0.608812 0.542687 0.000000
0.631678 0.546572 0.000000
0.651668 0.549744 0.000000
0.670255 0.552609 0.000000
0.688197 0.555376 0.000000
0.704374 0.557209 0.000000
0.720002 0.558967 0.000000
0.735135 0.560670 0.000000
0.748774 0.561832 0.000000
0.761931 0.562924 0.000000
0.774705 0.563984 0.000000
0.000000 0.365092 0.000000
0.000000 0.364437 0.000000
0.000000 0.366010 0.000000
0.000000 0.369148 0.000000
0.000000 0.374397 0.000000
0.000000 0.382003 0.000000
0.000000 0.392298 0.000000
0.000000 0.406242 0.000000
0.000000 0.421898 0.000000
0.021395 0.437492 0.000000
0.076497 0.452365 0.000000
0.195251 0.466371 0.000000
0.265316 0.479494 0.000000
0.317082 0.491811 0.000000
0.361723 0.503190 0.000000
0.402377 0.513390 0.000000
0.439085 0.522409 0.000000
0.473013 0.530141 0.000000
0.504666 0.536920 0.000000
0.534645 0.542968 0.000000
0.563096 0.548367 0.000000
0.589823 0.553346 0.000000
0.613831 0.557538 0.000000
0.636920 0.561570 0.000000
0.657093 0.564869 0.000000
0.675846 0.567852 0.000000
