tools/color/sRGB_to_3513.cube
# sRGB in -> f3513.cube print look out
# exposure -0.30 stops, grey_cv=445.0
LUT_3D_SIZE 5
DOMAIN_MIN 0 0 0
DOMAIN_MAX 1 1 1
0.029247 0.032696 0.032628
0.074162 0.042163 0.034903
0.253594 0.046593 0.000280
0.406720 0.002077 0.000000
0.507674 0.000005 0.000000
0.000000 0.106952 0.047131
0.095509 0.123662 0.040963
0.326923 0.161595 0.000001
0.501098 0.174705 0.000000
0.606478 0.171597 0.000000
0.000000 0.232301 0.011270
0.043420 0.267090 0.000002
0.393185 0.339566 0.000000
0.586136 0.368073 0.000000
0.702081 0.376480 0.000000
0.000000 0.345558 0.000013
0.000000 0.398367 0.000000
0.432460 0.494352 0.000000
0.646048 0.534075 0.000000
0.768270 0.547615 0.000000
0.000000 0.410964 0.000000
0.000002 0.479451 0.000000
0.452405 0.591700 0.000000
0.683136 0.642755 0.000000
0.812362 0.662170 0.000000
0.018591 0.028516 0.111856
0.082036 0.040927 0.117401
0.280474 0.016500 0.114893
0.447751 0.000006 0.115564
0.552426 0.000000 0.114241
0.000000 0.128356 0.153692
0.086354 0.146273 0.151804
0.355081 0.173194 0.141373
0.531103 0.164624 0.118945
0.636184 0.141166 0.096707
0.000000 0.285656 0.196172
0.000002 0.316332 0.186699
0.409331 0.369826 0.154944
0.610755 0.384044 0.109469
0.726356 0.383544 0.071349
0.000000 0.414600 0.228936
0.000000 0.462304 0.210449
0.431873 0.539598 0.144857
0.666573 0.571129 0.079554
0.790852 0.578402 0.037717
0.000000 0.480851 0.253749
0.000000 0.544069 0.233910
0.436678 0.636990 0.150885
0.690973 0.679373 0.077960
0.825451 0.695095 0.005742
0.000000 0.000001 0.275942
0.082393 0.000012 0.285887
0.302706 0.000003 0.302101
0.470099 0.000000 0.310484
0.574840 0.000000 0.317659
0.000000 0.125422 0.347072
0.019259 0.157713 0.353671
0.361287 0.184066 0.363405
0.542449 0.173444 0.357041
0.648834 0.146531 0.352885
0.000000 0.331050 0.431168
0.000000 0.363730 0.436107
0.394919 0.412913 0.427986
0.612322 0.425529 0.420878
0.729862 0.422544 0.414845
0.000000 0.475472 0.484411
0.000000 0.525844 0.489531
0.389715 0.598289 0.469563
0.650852 0.623671 0.460872
0.780607 0.627811 0.452579
0.000000 0.544129 0.518269
0.000000 0.609563 0.524477
0.373472 0.698347 0.501435
0.665248 0.735277 0.489964
0.806143 0.747907 0.481744
0.000000 0.000000 0.385888
0.052142 0.000000 0.399933
0.315147 0.000000 0.427874
0.483364 0.000000 0.438445
0.586921 0.000000 0.447123
0.000000 0.073814 0.461992
0.002207 0.147472 0.484203
0.360617 0.179721 0.506769
0.543438 0.164869 0.506364
0.651946 0.132758 0.505726
0.000000 0.342754 0.571042
0.000000 0.377767 0.584249
0.376919 0.431270 0.585924
0.605796 0.443243 0.586974
0.726375 0.439993 0.584960
0.000000 0.500661 0.631702
0.000000 0.552735 0.648705
0.348373 0.626693 0.637726
0.634660 0.650539 0.640002
0.772854 0.658368 0.640006
0.000000 0.570785 0.664476
0.000000 0.637458 0.682603
0.313714 0.726765 0.669935
0.643938 0.764864 0.672242
0.794379 0.781469 0.673658
0.000000 0.000000 0.447449
0.016590 0.000000 0.464831
0.318339 0.000000 0.498763
0.490511 0.000000 0.514503
0.595336 0.000000 0.524396
0.000000 0.027699 0.527165
0.001733 0.132189 0.556037
0.358583 0.171017 0.585816
0.544734 0.150691 0.592584
0.654646 0.116560 0.594841
0.000000 0.344567 0.645280
0.000000 0.382962 0.665358
0.363899 0.440263 0.671905
0.599851 0.450435 0.677200
0.725060 0.449705 0.681221
0.000000 0.509114 0.706462
0.000000 0.563753 0.731162
0.315897 0.637823 0.726663
0.624567 0.664787 0.735881
0.768414 0.674770 0.741539
0.000000 0.581080 0.737307
0.000000 0.648976 0.762393
0.264187 0.738524 0.756262
0.630433 0.780226 0.767550
0.786829 0.798394 0.774130
