tools/color/sRGB_to_2383.cube
# sRGB in -> k2383.cube print look out
# exposure -0.30 stops, grey_cv=445.0
LUT_3D_SIZE 5
DOMAIN_MIN 0 0 0
DOMAIN_MAX 1 1 1
0.028545 0.035122 0.042781
0.091127 0.050066 0.044679
0.263525 0.058036 0.008507
0.440935 0.020497 0.000000
0.551716 0.000020 0.000000
0.000000 0.088823 0.062328
0.106560 0.110053 0.059980
0.329118 0.140956 0.003492
0.533820 0.154707 0.000000
0.646759 0.150546 0.000000
0.000000 0.220583 0.080231
0.015206 0.263699 0.047694
0.404460 0.342509 0.000000
0.642439 0.382190 0.000000
0.766155 0.395243 0.000000
0.000000 0.340195 0.063998
0.000009 0.413481 0.000008
0.437015 0.530241 0.000000
0.708936 0.592093 0.000000
0.844142 0.615010 0.000000
0.000000 0.411304 0.012400
0.000000 0.504487 0.000000
0.446045 0.641592 0.000000
0.739786 0.718201 0.000000
0.883240 0.748682 0.000000
0.014962 0.036445 0.102928
0.091686 0.051584 0.111699
0.273001 0.056590 0.115062
0.452996 0.000022 0.112915
0.566128 0.000000 0.114697
0.000000 0.101737 0.139251
0.097580 0.123466 0.143243
0.337542 0.152012 0.143843
0.537569 0.145397 0.130485
0.646528 0.118452 0.115558
0.000000 0.249117 0.181018
0.000088 0.293906 0.179342
0.397704 0.358156 0.160716
0.635553 0.383602 0.124945
0.757308 0.388396 0.091177
0.000000 0.379154 0.201814
0.000000 0.447701 0.192592
0.409933 0.542433 0.131633
0.690732 0.592846 0.054303
0.827979 0.612008 0.001849
0.000000 0.452575 0.210155
0.000000 0.534601 0.194111
0.404099 0.647741 0.091875
0.715265 0.717336 0.000471
0.863922 0.747578 0.000000
0.000000 0.000000 0.250273
0.090953 0.001204 0.268691
0.286380 0.000496 0.293384
0.474744 0.000000 0.310125
0.588215 0.000000 0.321124
0.000000 0.085304 0.306673
0.046875 0.134456 0.328602
0.342170 0.161230 0.354954
0.549196 0.152668 0.362623
0.660205 0.124920 0.363121
0.000000 0.283068 0.391312
0.000000 0.332062 0.412018
0.380456 0.393803 0.422682
0.636146 0.418475 0.428204
0.761385 0.422686 0.427092
0.000000 0.426846 0.435384
0.000000 0.497480 0.455509
0.361223 0.588434 0.455806
0.674379 0.634557 0.457441
0.814437 0.648246 0.453569
0.000000 0.505344 0.457269
0.000000 0.588443 0.477020
0.325739 0.696192 0.470539
0.684821 0.756059 0.468803
0.835578 0.777391 0.463183
0.000000 0.000000 0.365667
0.073177 0.000000 0.385365
0.300848 0.000000 0.422032
0.491587 0.000000 0.444477
0.604373 0.000000 0.457777
0.000000 0.006079 0.423957
0.008955 0.125241 0.459174
0.344691 0.156519 0.498848
0.555302 0.143286 0.514334
0.667762 0.109486 0.519111
0.000000 0.289665 0.534993
0.000000 0.346731 0.567434
0.364121 0.411940 0.587371
0.633031 0.436469 0.603185
0.760928 0.440209 0.606825
0.000000 0.448819 0.592372
0.000000 0.521614 0.624068
0.314972 0.612748 0.634464
0.660550 0.658021 0.648445
0.805554 0.671385 0.651117
0.000000 0.531175 0.618989
0.000000 0.615547 0.650950
0.243190 0.722579 0.656233
0.664224 0.781623 0.668930
0.821509 0.802893 0.671405
0.000000 0.000000 0.439083
0.040677 0.000000 0.460123
0.306627 0.000000 0.503403
0.501624 0.000000 0.530157
0.614901 0.000000 0.544440
0.000000 0.000015 0.505676
0.002189 0.105764 0.539812
0.344840 0.146849 0.587427
0.558283 0.125205 0.608043
0.672530 0.081018 0.615757
0.000000 0.284469 0.619880
0.000000 0.347704 0.659427
0.351062 0.418998 0.686038
0.629082 0.443183 0.707875
0.759330 0.446589 0.714387
0.000000 0.454201 0.684563
0.000000 0.530026 0.723657
0.278158 0.622930 0.739429
0.650086 0.668175 0.760794
0.798882 0.681418 0.766845
0.000000 0.540253 0.713832
0.000000 0.626706 0.752931
0.192923 0.734754 0.764685
0.649422 0.793536 0.784800
0.811587 0.814850 0.791054
