tools/color/sRGB_to_3513.cube
# sRGB in -> f3513.cube print look out
# exposure -0.30 stops, grey_cv=445.0
LUT_3D_SIZE 9
DOMAIN_MIN 0 0 0
DOMAIN_MAX 1 1 1
0.029247 0.032696 0.032628
0.027592 0.033613 0.034258
0.074162 0.042163 0.034903
0.163130 0.048488 0.026089
0.253594 0.046593 0.000280
0.337541 0.021728 0.000000
0.406720 0.002077 0.000000
0.461653 0.000026 0.000000
0.507674 0.000005 0.000000
0.027839 0.054044 0.038128
0.028134 0.054271 0.039987
0.085501 0.065319 0.040155
0.183060 0.076660 0.025378
0.281879 0.084293 0.000141
0.371688 0.084087 0.000000
0.443183 0.076048 0.000000
0.497337 0.058189 0.000000
0.542323 0.019342 0.000000
0.000000 0.106952 0.047131
0.000144 0.107880 0.048271
0.095509 0.123662 0.040963
0.213648 0.142964 0.007117
0.326923 0.161595 0.000001
0.424064 0.170799 0.000000
0.501098 0.174705 0.000000
0.559105 0.174501 0.000000
0.606478 0.171597 0.000000
0.000000 0.171424 0.044673
0.000004 0.173228 0.044411
0.081412 0.195039 0.012145
0.238909 0.227459 0.000082
0.365895 0.252952 0.000000
0.469472 0.267314 0.000000
0.551039 0.275707 0.000000
0.612509 0.279411 0.000000
0.662750 0.280303 0.000000
0.000000 0.232301 0.011270
0.000000 0.235248 0.009798
0.043420 0.267090 0.000002
0.252790 0.308644 0.000000
0.393185 0.339566 0.000000
0.501805 0.357383 0.000000
0.586136 0.368073 0.000000
0.649944 0.373845 0.000000
0.702081 0.376480 0.000000
0.000000 0.294814 0.000026
0.000000 0.300370 0.000058
0.000031 0.339193 0.000002
0.259523 0.388108 0.000000
0.415351 0.424455 0.000000
0.530399 0.445688 0.000000
0.618723 0.458742 0.000000
0.684553 0.466083 0.000000
0.737884 0.469818 0.000000
0.000000 0.345558 0.000013
0.000000 0.353561 0.000004
0.000000 0.398367 0.000000
0.263168 0.453367 0.000000
0.432460 0.494352 0.000000
0.553881 0.518776 0.000000
0.646048 0.534075 0.000000
0.713891 0.542890 0.000000
0.768270 0.547615 0.000000
0.000000 0.382006 0.000000
0.000000 0.392725 0.000000
0.000009 0.442936 0.000000
0.266221 0.503030 0.000000
0.444004 0.547694 0.000000
0.570863 0.575310 0.000000
0.666688 0.593196 0.000000
0.736584 0.603720 0.000000
0.792344 0.609663 0.000000
0.000000 0.410964 0.000000
0.000000 0.424375 0.000000
0.000002 0.479451 0.000000
0.266520 0.543946 0.000000
0.452405 0.591700 0.000000
0.583871 0.622324 0.000000
0.683136 0.642755 0.000000
0.755080 0.654982 0.000000
0.812362 0.662170 0.000000
0.028024 0.032817 0.044120
0.025325 0.034357 0.044147
0.078722 0.044623 0.046048
0.173450 0.050155 0.039938
0.266690 0.038046 0.007741
0.355198 0.005404 0.001903
0.428303 0.000027 0.000950
0.485101 0.000000 0.000120
0.532473 0.000000 0.000001
0.020911 0.057070 0.050098
0.019552 0.057386 0.050394
0.090631 0.069076 0.052355
0.194637 0.080256 0.042227
0.296444 0.082935 0.004744
0.389748 0.077848 0.000471
0.464089 0.063860 0.000001
0.520478 0.028951 0.000000
0.568285 0.010107 0.000000
0.000001 0.114390 0.064739
0.000000 0.115359 0.063555
0.099214 0.132271 0.060293
0.225710 0.150454 0.035493
0.343097 0.165635 0.002685
0.444263 0.173720 0.000098
0.524337 0.176983 0.000000
0.584119 0.175819 0.000006
0.632754 0.172061 0.000002
0.000000 0.185170 0.072461
0.000011 0.187285 0.069764
0.073906 0.209668 0.054999
0.249345 0.238697 0.008063
0.383622 0.263918 0.000272
0.491664 0.277903 0.000000
0.576058 0.285536 0.000000
0.639189 0.288690 0.000000
0.690488 0.289018 0.000000
0.000000 0.252016 0.071342
0.000000 0.255243 0.066797
0.021578 0.283887 0.020348
0.262028 0.325987 0.001167
0.411913 0.357707 0.000000
0.525141 0.375193 0.000008
0.612440 0.385191 0.000001
0.677923 0.390463 0.000000
0.731119 0.392691 0.000000
0.000000 0.317544 0.064990
0.000000 0.322725 0.051996
0.000016 0.361395 0.005833
0.265714 0.412334 0.000013
0.433489 0.449577 0.000013
0.554832 0.471483 0.000003
0.647128 0.484874 0.000000
0.714884 0.491983 0.000000
0.769279 0.495222 0.000000
0.000000 0.369857 0.055073
0.000000 0.377590 0.023697
0.000006 0.424448 0.003714
0.265617 0.482137 0.000000
0.449276 0.524156 0.000000
0.578633 0.550013 0.000000
0.675867 0.566416 0.000000
0.745901 0.575257 0.000000
0.801273 0.579419 0.000000
0.000000 0.406047 0.047053
0.000000 0.417091 0.021271
0.000001 0.469620 0.003409
0.260498 0.532711 0.000000
0.459096 0.579144 0.000001
0.594457 0.608389 0.000000
0.695569 0.627417 0.000000
0.767895 0.638194 0.000000
0.824826 0.643875 0.000000
0.000000 0.433974 0.041670
0.000000 0.448105 0.022314
0.000000 0.505440 0.003458
0.253206 0.573136 0.000000
0.465451 0.623587 0.000002
0.605607 0.655825 0.000000
0.709926 0.677201 0.000000
0.784503 0.689879 0.000000
0.843273 0.697204 0.000000
0.018591 0.028516 0.111856
0.009899 0.031397 0.110230
0.082036 0.040927 0.117401
0.182724 0.044101 0.119624
0.280474 0.016500 0.114893
0.372856 0.000193 0.115237
0.447751 0.000006 0.115564
0.505011 0.000000 0.115187
0.552426 0.000000 0.114241
0.000110 0.060693 0.124453
0.001459 0.060437 0.121536
0.091891 0.072569 0.127664
0.204523 0.083647 0.129316
0.310740 0.081898 0.123249
0.401440 0.049375 0.115591
0.476442 0.007466 0.110199
0.536191 0.001151 0.108164
0.585789 0.000003 0.106214
0.000000 0.128356 0.153692
0.000000 0.129483 0.150369
0.086354 0.146273 0.151804
0.233828 0.164260 0.150312
0.355081 0.173194 0.141373
0.453800 0.171539 0.130692
0.531103 0.164624 0.118945
0.588932 0.154403 0.106459
0.636184 0.141166 0.096707
0.000000 0.209803 0.177535
0.000000 0.212072 0.175332
0.029975 0.233693 0.172967
0.249968 0.259269 0.165444
0.388894 0.275027 0.152214
0.495983 0.280400 0.136044
0.578718 0.280757 0.117903
0.640146 0.278392 0.104456
0.689850 0.274136 0.090638
0.000000 0.285656 0.196172
0.000000 0.288615 0.193802
0.000002 0.316332 0.186699
0.250933 0.348697 0.172029
0.409331 0.369826 0.154944
0.523741 0.379732 0.131520
0.610755 0.384044 0.109469
0.674621 0.384719 0.085959
0.726356 0.383544 0.071349
0.000000 0.357647 0.213219
0.000000 0.362792 0.209718
0.000011 0.397275 0.199009
0.234760 0.436258 0.175940
0.422952 0.463595 0.148433
0.548000 0.478651 0.119569
0.641308 0.487149 0.087177
0.708591 0.491025 0.071070
0.761713 0.491405 0.058316
0.000000 0.414600 0.228936
0.000000 0.421948 0.223895
0.000000 0.462304 0.210449
0.194446 0.506901 0.180000
0.431873 0.539598 0.144857
0.566979 0.558802 0.105388
0.666573 0.571129 0.079554
0.736525 0.576937 0.061578
0.790852 0.578402 0.037717
0.000000 0.452628 0.242277
0.000000 0.462732 0.236966
0.000000 0.508156 0.222307
0.172152 0.557272 0.186751
0.435727 0.593971 0.146821
0.577857 0.616458 0.101763
0.681704 0.631465 0.077950
0.754303 0.639276 0.054182
0.810833 0.642771 0.016461
0.000000 0.480851 0.253749
0.000000 0.493895 0.248104
0.000000 0.544069 0.233910
0.160077 0.596985 0.195256
0.436678 0.636990 0.150885
0.584078 0.662221 0.103307
0.690973 0.679373 0.077960
0.766149 0.689210 0.048072
0.825451 0.695095 0.005742
0.001027 0.001424 0.195787
0.001464 0.001631 0.194071
0.084826 0.007806 0.204784
0.189981 0.007723 0.212371
0.292928 0.001312 0.213934
0.386252 0.000021 0.217317
0.461246 0.000000 0.220237
0.518677 0.000000 0.222701
0.566011 0.000000 0.224588
0.000000 0.040134 0.213025
0.000001 0.041763 0.210563
0.089826 0.067500 0.222258
0.209146 0.077985 0.229605
0.319023 0.073218 0.228383
0.411435 0.032609 0.225233
0.488701 0.004889 0.225155
0.548968 0.000926 0.227060
0.599097 0.000001 0.229512
0.000000 0.133056 0.257712
0.000001 0.133892 0.254392
0.053268 0.156189 0.258688
0.233114 0.173519 0.263626
0.361259 0.182349 0.260879
0.461690 0.179770 0.255914
0.539765 0.171816 0.250524
0.598417 0.161506 0.246486
0.646244 0.147926 0.243242
0.000000 0.229850 0.295490
0.000000 0.231736 0.293568
0.000056 0.254088 0.294632
0.240002 0.278594 0.292221
0.390357 0.293877 0.287312
0.501172 0.298643 0.281071
0.585581 0.298283 0.274789
0.647528 0.295261 0.269827
0.697316 0.290332 0.265690
0.000000 0.313293 0.322577
0.000000 0.315805 0.321763
0.000000 0.345408 0.322667
0.223202 0.375970 0.313948
0.404283 0.395434 0.309002
0.525139 0.405003 0.301304
0.615221 0.409078 0.293276
0.679759 0.408886 0.287332
0.730773 0.405990 0.282783
0.000000 0.391730 0.349638
0.000000 0.396608 0.347841
0.000000 0.431835 0.346052
0.165505 0.469058 0.332778
0.410894 0.495073 0.324700
0.544326 0.508964 0.315930
0.641022 0.516060 0.307642
0.708882 0.518107 0.300843
0.761744 0.516967 0.295162
0.000000 0.451203 0.370661
0.000000 0.459191 0.368904
0.000000 0.500460 0.366082
0.130363 0.543546 0.349865
0.413187 0.574961 0.338032
0.558259 0.592392 0.328463
0.661154 0.601844 0.319972
0.732267 0.605741 0.312536
0.787177 0.606118 0.305799
0.000000 0.490369 0.388311
0.000000 0.501193 0.386078
0.000000 0.547498 0.383426
0.093031 0.595077 0.365549
0.411652 0.630595 0.351455
0.565295 0.651220 0.340899
0.672776 0.663126 0.331646
0.746810 0.669027 0.323447
0.803998 0.671141 0.316045
0.000000 0.518944 0.402153
0.000000 0.532447 0.400218
0.000000 0.583351 0.398411
0.073435 0.634886 0.379922
0.407552 0.673771 0.364324
0.568223 0.697322 0.352644
0.679288 0.711597 0.342325
0.756168 0.719514 0.333424
0.815668 0.723384 0.325489
0.000000 0.000001 0.275942
0.000000 0.000001 0.274900
0.082393 0.000012 0.285887
0.197934 0.000015 0.297865
0.302706 0.000003 0.302101
0.395682 0.000000 0.306804
0.470099 0.000000 0.310484
0.527670 0.000000 0.314527
0.574840 0.000000 0.317659
0.000000 0.002024 0.294870
0.000000 0.002747 0.293791
0.088258 0.042356 0.307655
0.211396 0.053664 0.318964
0.322484 0.031893 0.320910
0.418072 0.008122 0.321455
0.496322 0.002044 0.322930
0.556432 0.000000 0.326035
0.606114 0.000000 0.329290
0.000000 0.125422 0.347072
0.000000 0.125734 0.345072
0.019259 0.157713 0.353671
0.228793 0.175454 0.362581
0.361287 0.184066 0.363405
0.463502 0.181530 0.360716
0.542449 0.173444 0.357041
0.601183 0.162339 0.354617
0.648834 0.146531 0.352885
0.000000 0.237478 0.395954
0.000000 0.239369 0.394652
0.000009 0.265353 0.399739
0.223795 0.290381 0.399003
0.385343 0.304954 0.398058
0.499831 0.309672 0.395603
0.586066 0.309497 0.392656
0.648575 0.306313 0.389819
0.698434 0.301153 0.387040
0.000000 0.331050 0.431168
0.000000 0.333430 0.431380
0.000000 0.363730 0.436107
0.170887 0.394563 0.429511
0.394919 0.412913 0.427986
0.520412 0.421857 0.424674
0.612322 0.425529 0.420878
0.677995 0.425296 0.417690
0.729862 0.422544 0.414845
0.000000 0.412424 0.460206
0.000000 0.417760 0.460983
0.000000 0.454653 0.465602
0.114398 0.491862 0.455834
0.394801 0.516170 0.450781
0.534717 0.529183 0.446779
0.634144 0.535687 0.442772
0.703652 0.537592 0.439088
0.757910 0.536563 0.435556
0.000000 0.475472 0.484411
0.000000 0.483135 0.485103
0.000000 0.525844 0.489531
0.067493 0.568901 0.478146
0.389715 0.598289 0.469563
0.544399 0.614832 0.465003
0.650852 0.623671 0.460872
0.724026 0.627371 0.456719
0.780607 0.627811 0.452579
0.000000 0.515987 0.503814
0.000000 0.526469 0.504675
0.000000 0.573453 0.508507
0.054030 0.621377 0.496696
0.382401 0.654845 0.486349
0.548507 0.674752 0.481211
0.660248 0.686115 0.476431
0.736757 0.692007 0.472027
0.795640 0.694390 0.467918
0.000000 0.544129 0.518269
0.000000 0.558346 0.519353
0.000000 0.609563 0.524477
0.038634 0.660814 0.511824
0.373472 0.698347 0.501435
0.549309 0.721434 0.495687
0.665248 0.735277 0.489964
0.744696 0.743423 0.485471
0.806143 0.747907 0.481744
0.000000 0.000000 0.338079
0.000000 0.000000 0.339033
0.070624 0.000000 0.350064
0.201554 0.000000 0.365056
0.310195 0.000000 0.372714
0.403545 0.000000 0.378639
0.478117 0.000000 0.383006
0.534668 0.000000 0.386767
0.581499 0.000000 0.390162
0.000000 0.000002 0.362553
0.000000 0.000004 0.363273
0.081186 0.007205 0.375608
0.214314 0.010049 0.390283
0.328846 0.007481 0.396540
0.425528 0.002874 0.399346
0.503108 0.000000 0.400786
0.563117 0.000000 0.404464
0.612896 0.000003 0.408707
0.000000 0.102192 0.412610
0.000000 0.104056 0.412607
0.007467 0.154048 0.427539
0.225364 0.174788 0.440309
0.361082 0.182755 0.444348
0.464039 0.179389 0.443538
0.543312 0.170447 0.441097
0.602431 0.157667 0.439688
0.650569 0.139925 0.438880
0.000000 0.238325 0.470960
0.000000 0.239347 0.470819
0.000026 0.269550 0.480621
0.204844 0.297449 0.481944
0.380681 0.311655 0.485150
0.497410 0.316142 0.484852
0.584778 0.315734 0.483162
0.648037 0.312447 0.481366
0.698451 0.307225 0.479450
0.000000 0.337813 0.510058
0.000000 0.339501 0.511174
0.000000 0.373604 0.520952
0.143095 0.405357 0.515613
0.385585 0.423911 0.517665
0.515275 0.432702 0.517209
0.608976 0.436117 0.515368
0.675638 0.435752 0.513472
0.728166 0.432933 0.511477
0.000000 0.424357 0.541587
0.000000 0.428939 0.543601
0.000000 0.468116 0.553640
0.078067 0.506271 0.546112
0.379633 0.530588 0.543965
0.526172 0.543258 0.543237
0.628035 0.549259 0.541598
0.699225 0.551366 0.539743
0.754728 0.550951 0.537732
0.000000 0.491274 0.568571
0.000000 0.498427 0.571065
0.000000 0.542095 0.580374
0.047153 0.585920 0.572048
0.368372 0.614909 0.565588
0.532358 0.630929 0.564589
0.642101 0.639186 0.563138
0.717604 0.643412 0.561392
0.776147 0.644999 0.559460
0.000000 0.531392 0.587296
0.000000 0.543252 0.591656
0.000000 0.590552 0.600050
0.017045 0.638816 0.591134
0.354840 0.671923 0.583284
0.534113 0.691521 0.582030
0.649791 0.702613 0.580303
0.728882 0.709208 0.578678
0.790010 0.712824 0.577067
0.000000 0.559985 0.601841
0.000000 0.574608 0.606302
0.000000 0.626378 0.615308
0.001124 0.678374 0.606371
0.340922 0.715140 0.598258
0.533010 0.738274 0.596742
0.653572 0.752326 0.594501
0.735878 0.761295 0.592970
0.799414 0.766929 0.591838
0.000000 0.000000 0.385888
0.000004 0.000000 0.388588
0.052142 0.000000 0.399933
0.202336 0.000000 0.417234
0.315147 0.000000 0.427874
0.409128 0.000000 0.434428
0.483364 0.000000 0.438445
0.539716 0.000000 0.442461
0.586921 0.000000 0.447123
0.000000 0.000006 0.414817
0.000005 0.000006 0.417076
0.067867 0.002335 0.429054
0.216224 0.003179 0.446690
0.334247 0.002903 0.455889
0.431179 0.000408 0.459923
0.508723 0.000001 0.462238
0.568215 0.000003 0.465800
0.617957 0.000009 0.470132
0.000000 0.073814 0.461992
0.000000 0.079931 0.464324
0.002207 0.147472 0.484203
0.222751 0.172592 0.500215
0.360617 0.179721 0.506769
0.463954 0.175546 0.507630
0.543438 0.164869 0.506364
0.603069 0.149322 0.505815
0.651946 0.132758 0.505726
0.000000 0.234857 0.527342
0.000000 0.236063 0.528885
0.000002 0.269914 0.541947
0.185355 0.301837 0.545618
0.376377 0.315723 0.551952
0.494828 0.319923 0.553292
0.582955 0.319299 0.552565
0.646913 0.315949 0.551626
0.698038 0.310779 0.550453
0.000000 0.342754 0.571042
0.000000 0.344108 0.573167
0.000000 0.377767 0.584249
0.121350 0.412182 0.581174
0.376919 0.431270 0.585924
0.510303 0.440027 0.587523
0.605796 0.443243 0.586974
0.673283 0.442791 0.586114
0.726375 0.439993 0.584960
0.000000 0.433471 0.604932
0.000000 0.438154 0.608644
0.000000 0.476742 0.620524
0.057625 0.515511 0.614351
0.365981 0.540677 0.614396
0.518488 0.553185 0.616070
0.622728 0.558893 0.616084
0.695366 0.561398 0.615719
0.752093 0.561734 0.615019
0.000000 0.500661 0.631702
0.000000 0.508776 0.636012
0.000000 0.552735 0.648705
0.019096 0.596988 0.642061
0.348373 0.626693 0.637726
0.522078 0.642560 0.639457
0.634660 0.650539 0.640002
0.712372 0.655506 0.640162
0.772854 0.658368 0.640006
0.000000 0.542663 0.650797
0.000000 0.552510 0.655196
0.000000 0.602343 0.668830
0.000028 0.650813 0.661937
0.330777 0.683943 0.655604
0.521848 0.703592 0.657355
0.641086 0.714756 0.658004
0.722622 0.722203 0.658490
0.785881 0.727120 0.658801
0.000000 0.570785 0.664476
0.000000 0.585309 0.671433
0.000000 0.637458 0.682603
0.000005 0.690695 0.677096
0.313714 0.726765 0.669935
0.519151 0.750264 0.671706
0.643938 0.764864 0.672242
0.728817 0.774739 0.672941
0.794379 0.781469 0.673658
0.000000 0.000000 0.420322
0.000000 0.000000 0.424198
0.034520 0.000000 0.436115
0.201657 0.000000 0.455093
0.317488 0.000000 0.467539
0.412439 0.000000 0.475212
0.487471 0.000000 0.480470
0.544097 0.000000 0.484927
0.591692 0.000000 0.489974
0.000000 0.000000 0.452589
0.000000 0.000002 0.455856
0.050494 0.000446 0.467923
0.216209 0.000827 0.487839
0.336859 0.000553 0.498817
0.434876 0.000001 0.504552
0.512858 0.000001 0.508162
0.572417 0.000005 0.511987
0.622248 0.000001 0.516605
0.000000 0.045927 0.497846
0.000000 0.050057 0.500825
0.001999 0.140076 0.524480
0.220386 0.169570 0.542860
0.359760 0.175932 0.551155
0.463906 0.170531 0.553872
0.543974 0.158111 0.554234
0.604111 0.141653 0.554686
0.653340 0.125615 0.555118
0.000000 0.229849 0.566065
0.000000 0.230299 0.568763
0.000000 0.269154 0.585454
0.171464 0.304528 0.590471
0.372963 0.318115 0.598594
0.492807 0.322038 0.601595
0.581670 0.321200 0.602266
0.646251 0.317871 0.602442
0.697893 0.312889 0.602204
0.000000 0.344026 0.612758
0.000000 0.345333 0.615959
0.000000 0.380758 0.630053
0.097277 0.417046 0.627993
0.369794 0.436490 0.634314
0.505972 0.444851 0.637223
0.602719 0.447700 0.637728
0.671365 0.447552 0.638217
0.725486 0.445417 0.638559
0.000000 0.438041 0.648249
0.000000 0.443249 0.653361
0.000000 0.481855 0.666768
0.044798 0.521748 0.662886
0.353881 0.547075 0.664042
0.511906 0.559687 0.667385
0.618258 0.565576 0.668653
0.692417 0.568591 0.669752
0.750375 0.569631 0.670622
0.000000 0.506261 0.674332
0.000000 0.515577 0.681236
0.000000 0.559565 0.695778
0.000508 0.604144 0.691259
0.330800 0.633741 0.688090
0.513603 0.650097 0.691926
0.629048 0.658705 0.694077
0.708578 0.664315 0.695771
0.770349 0.667824 0.697079
0.000000 0.548085 0.692936
0.000000 0.559489 0.700120
0.000000 0.609115 0.715142
0.000002 0.658460 0.711217
0.310563 0.691202 0.705684
0.511841 0.711514 0.709819
0.634360 0.723482 0.712395
0.717929 0.731574 0.714458
0.782605 0.737039 0.716113
0.000000 0.576485 0.706242
0.000000 0.591741 0.715018
0.000000 0.644426 0.728167
0.000000 0.698297 0.725591
0.288997 0.734028 0.719179
0.507966 0.758258 0.723525
0.636415 0.773741 0.726282
0.723226 0.784210 0.728601
0.790294 0.791392 0.730549
0.000000 0.000000 0.447449
0.000000 0.000000 0.452244
0.016590 0.000000 0.464831
0.200076 0.000000 0.484913
0.318339 0.000000 0.498763
0.414612 0.000000 0.507719
0.490511 0.000000 0.514503
0.547937 0.000000 0.519692
0.595336 0.000000 0.524396
0.000000 0.000000 0.482439
0.000000 0.000000 0.486478
0.039097 0.000001 0.499127
0.215107 0.000001 0.520565
0.337986 0.000001 0.532880
0.437381 0.000000 0.540502
0.515980 0.000000 0.545476
0.576134 0.000000 0.550067
0.625854 0.000000 0.554487
0.000000 0.027699 0.527165
0.000000 0.033236 0.531078
0.001733 0.132189 0.556037
0.218356 0.165477 0.576146
0.358583 0.171017 0.585816
0.463880 0.164724 0.590427
0.544734 0.150691 0.592584
0.605289 0.135149 0.594020
0.654646 0.116560 0.594841
0.000000 0.222884 0.595012
0.000000 0.223301 0.599238
0.000000 0.267412 0.619197
0.159442 0.306033 0.625193
0.370043 0.319430 0.634482
0.491223 0.323070 0.639104
0.580764 0.322026 0.641309
0.645806 0.318795 0.642682
0.697881 0.314072 0.643426
0.000000 0.344567 0.645280
0.000000 0.345357 0.649233
0.000000 0.382962 0.665358
0.077518 0.420862 0.665052
0.363899 0.440263 0.671905
0.502120 0.448042 0.675780
0.599851 0.450435 0.677200
0.669706 0.450776 0.679138
0.725060 0.449705 0.681221
0.000000 0.440200 0.680364
0.000000 0.445772 0.687037
0.000000 0.485954 0.702857
0.026947 0.526020 0.700396
0.342691 0.551147 0.702416
0.506205 0.564002 0.707066
0.614422 0.570305 0.709380
0.689949 0.573869 0.711914
0.749197 0.575585 0.714418
0.000000 0.509114 0.706462
0.000000 0.519511 0.715342
0.000000 0.563753 0.731162
0.000088 0.608593 0.728825
0.315897 0.637823 0.726663
0.506284 0.655069 0.732329
0.624567 0.664787 0.735881
0.705551 0.670968 0.738932
0.768414 0.674770 0.741539
0.000000 0.552419 0.725473
0.000000 0.564831 0.733521
0.000000 0.613127 0.749642
0.000000 0.662930 0.748171
0.291831 0.695455 0.743701
0.503500 0.716798 0.749944
0.629170 0.729950 0.754203
0.714177 0.738550 0.757602
0.779922 0.744166 0.760353
0.000000 0.581080 0.737307
0.000000 0.595608 0.746560
0.000000 0.648976 0.762393
0.000000 0.703105 0.762104
0.264187 0.738524 0.756262
0.498916 0.763697 0.762847
0.630433 0.780226 0.767550
0.718730 0.791116 0.771210
0.786829 0.798394 0.774130
