tools/color/sRGB_to_2383.cube
# sRGB in -> k2383.cube print look out
# exposure -0.30 stops, grey_cv=445.0
LUT_3D_SIZE 33
DOMAIN_MIN 0 0 0
DOMAIN_MAX 1 1 1
0.028545 0.035122 0.042781
0.030559 0.035636 0.043334
0.034083 0.036324 0.043686
0.037047 0.037329 0.044126
0.039912 0.038683 0.044588
0.048619 0.040389 0.044853
0.066178 0.043046 0.045208
0.079347 0.046260 0.045060
0.091127 0.050066 0.044679
0.106689 0.053187 0.043948
0.126832 0.055403 0.042629
0.152169 0.056824 0.039939
0.175356 0.058181 0.036981
0.197211 0.059324 0.033569
0.218603 0.059763 0.028208
0.240633 0.059355 0.019946
0.263525 0.058036 0.008507
0.287936 0.056483 0.002787
0.313045 0.054795 0.000933
0.337523 0.052136 0.000060
0.361392 0.048644 0.000038
0.383856 0.044174 0.000020
0.404164 0.036543 0.000011
0.423695 0.029203 0.000002
0.440935 0.020497 0.000000
0.457027 0.011548 0.000000
0.472561 0.002909 0.000000
0.487275 0.001853 0.000000
0.501504 0.000964 0.000000
0.515283 0.000103 0.000000
0.527833 0.000037 0.000000
0.539951 0.000028 0.000000
0.551716 0.000020 0.000000
0.027939 0.037637 0.043703
0.029982 0.038133 0.044208
0.033654 0.038790 0.044516
0.036768 0.039785 0.044937
0.039824 0.041215 0.045453
0.048995 0.043122 0.045855
0.067087 0.045912 0.046213
0.080755 0.049280 0.045934
0.092657 0.052936 0.045551
0.108422 0.055890 0.044710
0.128976 0.058044 0.043209
0.154967 0.059615 0.040499
0.178761 0.061148 0.037352
0.201170 0.062426 0.033684
0.223017 0.062807 0.027986
0.245492 0.062528 0.019602
0.268819 0.061539 0.008272
0.293600 0.060203 0.002650
0.319029 0.058653 0.000888
0.343827 0.056609 0.000057
0.368014 0.054144 0.000036
0.390767 0.051035 0.000018
0.411304 0.045829 0.000010
0.431055 0.040823 0.000002
0.448305 0.031309 0.000000
0.464338 0.020550 0.000000
0.479815 0.010164 0.000000
0.494562 0.006668 0.000000
0.508823 0.003404 0.000000
0.522634 0.000243 0.000000
0.535240 0.000039 0.000000
0.547413 0.000048 0.000000
0.559233 0.000056 0.000000
0.026926 0.041235 0.045008
0.029293 0.041692 0.045450
0.033163 0.042341 0.045726
0.036558 0.043407 0.046157
0.040013 0.045026 0.046761
0.049607 0.047143 0.047262
0.067900 0.049830 0.047383
0.082100 0.053174 0.047088
0.094243 0.056755 0.046739
0.110369 0.059722 0.045767
0.131463 0.062009 0.044084
0.158081 0.063849 0.041550
0.182500 0.065669 0.038117
0.205499 0.067244 0.034016
0.227843 0.067961 0.027823
0.250782 0.068069 0.019249
0.274544 0.067525 0.008055
0.299702 0.066559 0.002535
0.325468 0.065325 0.000849
0.350595 0.063616 0.000055
0.375104 0.061501 0.000034
0.398156 0.059050 0.000017
0.418948 0.055435 0.000009
0.438944 0.051960 0.000002
0.456296 0.045391 0.000000
0.472383 0.037970 0.000000
0.487911 0.030806 0.000000
0.502438 0.021876 0.000000
0.516482 0.013200 0.000000
0.530081 0.004799 0.000000
0.542706 0.003036 0.000000
0.554913 0.001784 0.000000
0.566765 0.000569 0.000000
0.026249 0.044937 0.046768
0.028945 0.045357 0.047149
0.033225 0.046097 0.047442
0.037048 0.047308 0.047915
0.040799 0.049088 0.048575
0.050489 0.051281 0.049100
0.068949 0.053861 0.049032
0.083877 0.057253 0.048736
0.096365 0.060812 0.048404
0.113013 0.063919 0.047352
0.134834 0.066481 0.045549
0.162098 0.068556 0.043062
0.187244 0.070720 0.039335
0.210952 0.072669 0.034843
0.233898 0.073785 0.028267
0.257386 0.074287 0.019431
0.281644 0.074136 0.008104
0.307261 0.073609 0.002532
0.333453 0.072839 0.000849
0.358998 0.071569 0.000055
0.383913 0.069870 0.000034
0.407339 0.067975 0.000017
0.428442 0.065361 0.000009
0.448737 0.062848 0.000002
0.466258 0.058945 0.000000
0.482468 0.054682 0.000000
0.498115 0.050566 0.000000
0.512472 0.039377 0.000000
0.526346 0.028422 0.000000
0.539781 0.017814 0.000000
0.552317 0.012207 0.000000
0.564444 0.007104 0.000000
0.576218 0.002149 0.000000
0.024897 0.048672 0.048918
0.028761 0.049116 0.049291
0.033840 0.050027 0.049652
0.038173 0.051390 0.050168
0.041868 0.053193 0.050792
0.051271 0.055289 0.051230
0.070021 0.057891 0.051162
0.085952 0.061493 0.050862
0.098949 0.065138 0.050506
0.116272 0.068542 0.049470
0.138948 0.071530 0.047657
0.166845 0.073769 0.044905
0.192749 0.076196 0.040969
0.217216 0.078435 0.036278
0.240836 0.079860 0.029449
0.264933 0.080672 0.020256
0.289735 0.080833 0.008456
0.315875 0.080773 0.002647
0.342570 0.080566 0.000887
0.368604 0.079893 0.000057
0.394000 0.078817 0.000035
0.417862 0.077469 0.000017
0.439316 0.075233 0.000009
0.459948 0.073083 0.000002
0.477701 0.070283 0.000000
0.494101 0.067336 0.000000
0.509933 0.064491 0.000000
0.524297 0.056939 0.000000
0.538177 0.049545 0.000000
0.551616 0.042386 0.000000
0.563927 0.032467 0.000000
0.575818 0.022629 0.000000
0.587363 0.013077 0.000000
0.018182 0.055202 0.051351
0.025404 0.055795 0.051781
0.032123 0.056752 0.052143
0.037331 0.058087 0.052603
0.040945 0.059813 0.053112
0.050590 0.061968 0.053479
0.070427 0.064813 0.053500
0.087599 0.068719 0.053182
0.101495 0.072600 0.052750
0.119630 0.076355 0.051719
0.143134 0.079773 0.049875
0.171929 0.082340 0.046659
0.198656 0.084824 0.042546
0.223900 0.087081 0.037622
0.248284 0.088730 0.029909
0.273109 0.089958 0.020203
0.298606 0.090744 0.008285
0.325359 0.091279 0.002491
0.352607 0.091639 0.000835
0.379183 0.091667 0.000054
0.405108 0.091406 0.000033
0.429455 0.090972 0.000015
0.451305 0.090004 0.000008
0.472318 0.089073 0.000002
0.490321 0.087301 0.000000
0.506924 0.085296 0.000000
0.522952 0.083361 0.000000
0.537413 0.079606 0.000000
0.551384 0.075938 0.000000
0.564913 0.072387 0.000000
0.577042 0.064884 0.000000
0.588738 0.057312 0.000000
0.600095 0.049961 0.000000
0.002585 0.066513 0.054238
0.007988 0.067134 0.054447
0.019374 0.068267 0.054739
0.029209 0.069810 0.055158
0.035068 0.071737 0.055642
0.046066 0.074120 0.055950
0.069673 0.077236 0.055833
0.087367 0.081325 0.055498
0.103046 0.085779 0.054850
0.122477 0.089844 0.053685
0.146745 0.093390 0.051764
0.176926 0.096541 0.048268
0.204781 0.099528 0.043457
0.231020 0.102286 0.037409
0.256285 0.104580 0.027186
0.281993 0.106625 0.016821
0.308380 0.108417 0.006222
0.335864 0.109921 0.001400
0.363727 0.111214 0.000474
0.390884 0.112109 0.000034
0.417358 0.112658 0.000018
0.442211 0.113017 0.000006
0.464481 0.112862 0.000003
0.485897 0.112712 0.000001
0.504178 0.111988 0.000000
0.521012 0.111094 0.000000
0.537262 0.110231 0.000000
0.551835 0.108123 0.000000
0.565913 0.106061 0.000000
0.579546 0.104064 0.000000
0.591743 0.101575 0.000000
0.603503 0.099120 0.000000
0.614921 0.096737 0.000000
0.000378 0.078100 0.058452
0.001313 0.078676 0.058496
0.004916 0.079711 0.058442
0.008686 0.081210 0.058554
0.016793 0.083197 0.058808
0.041182 0.085684 0.058734
0.068551 0.089127 0.058675
0.088184 0.093540 0.058203
0.104791 0.098316 0.057319
0.125494 0.102872 0.055934
0.151318 0.106985 0.053866
0.182318 0.110479 0.050367
0.211329 0.113991 0.045223
0.238747 0.117323 0.038270
0.264955 0.120223 0.025050
0.291546 0.122905 0.013709
0.318760 0.125376 0.004292
0.346961 0.127511 0.000364
0.375458 0.129395 0.000130
0.403239 0.130944 0.000016
0.430327 0.132199 0.000007
0.455743 0.133269 0.000001
0.478482 0.133899 0.000001
0.500350 0.134504 0.000000
0.518939 0.134473 0.000000
0.536028 0.134234 0.000000
0.552523 0.134004 0.000000
0.567225 0.132772 0.000000
0.581426 0.131562 0.000000
0.595177 0.130390 0.000000
0.607443 0.128860 0.000000
0.619266 0.127348 0.000000
0.630746 0.125879 0.000000
0.000000 0.088823 0.062328
0.000001 0.089408 0.062356
0.000700 0.090404 0.062189
0.001590 0.091903 0.062198
0.006438 0.093955 0.062367
0.026081 0.096522 0.062111
0.066898 0.100172 0.061877
0.088948 0.104908 0.060943
0.106560 0.110053 0.059980
0.128500 0.115079 0.058442
0.155899 0.119731 0.056113
0.188165 0.123747 0.052488
0.218218 0.127678 0.046818
0.246561 0.131379 0.038995
0.273607 0.134604 0.023873
0.301043 0.137788 0.011993
0.329118 0.140956 0.003492
0.358084 0.143806 0.000063
0.387274 0.146409 0.000045
0.415704 0.148596 0.000027
0.443403 0.150416 0.000012
0.469383 0.152025 0.000000
0.492593 0.153167 0.000000
0.514915 0.154264 0.000000
0.533820 0.154707 0.000000
0.551171 0.154926 0.000000
0.567920 0.155138 0.000000
0.582768 0.154595 0.000000
0.597107 0.154056 0.000000
0.610991 0.153533 0.000000
0.623329 0.152532 0.000000
0.635216 0.151524 0.000000
0.646759 0.150546 0.000000
0.000000 0.101618 0.065660
0.000001 0.102283 0.065695
0.000000 0.103331 0.065455
0.000000 0.104933 0.065401
0.002048 0.107153 0.065538
0.014576 0.109884 0.065189
0.059516 0.113725 0.064625
0.087003 0.118891 0.063394
0.107028 0.124495 0.062079
0.130455 0.129999 0.060228
0.159274 0.135150 0.057579
0.193168 0.139725 0.053426
0.224513 0.144149 0.046652
0.253993 0.148333 0.037435
0.282085 0.152142 0.020310
0.310514 0.156008 0.008558
0.339534 0.159968 0.002465
0.369260 0.163471 0.000024
0.399077 0.166627 0.000036
0.428120 0.169345 0.000032
0.456415 0.171677 0.000013
0.482947 0.173780 0.000000
0.506628 0.175402 0.000000
0.529402 0.176961 0.000000
0.548636 0.177897 0.000000
0.566269 0.178609 0.000000
0.583289 0.179296 0.000000
0.598282 0.179262 0.000000
0.612759 0.179216 0.000000
0.626778 0.179171 0.000000
0.639192 0.178554 0.000000
0.651151 0.177914 0.000000
0.662762 0.177292 0.000000
0.000000 0.117043 0.068616
0.000000 0.117846 0.068644
0.000000 0.119045 0.068336
0.000000 0.120865 0.068215
0.000910 0.123366 0.068299
0.008472 0.126373 0.067813
0.045772 0.130399 0.066663
0.081189 0.136063 0.065194
0.105255 0.142212 0.063288
0.130869 0.148242 0.060907
0.161320 0.153906 0.057730
0.197075 0.159047 0.052555
0.229967 0.164064 0.043492
0.260850 0.168907 0.032029
0.290306 0.173684 0.014310
0.319909 0.178444 0.003869
0.349907 0.183223 0.001140
0.380372 0.187299 0.000039
0.410761 0.190857 0.000032
0.440382 0.194034 0.000022
0.469261 0.196873 0.000009
0.496332 0.199470 0.000000
0.520474 0.201593 0.000000
0.543691 0.203635 0.000000
0.563253 0.205083 0.000000
0.581169 0.206304 0.000000
0.598464 0.207483 0.000000
0.613603 0.207822 0.000000
0.628220 0.208135 0.000000
0.642374 0.208438 0.000000
0.654876 0.208161 0.000000
0.666916 0.207851 0.000000
0.678607 0.207550 0.000000
0.000000 0.135752 0.071615
0.000000 0.136741 0.071636
0.000000 0.138241 0.071346
0.000003 0.140435 0.071183
0.000181 0.143355 0.071090
0.003291 0.146790 0.070178
0.024833 0.150931 0.067736
0.068818 0.157034 0.065475
0.098928 0.163820 0.063029
0.128668 0.170541 0.059825
0.162091 0.176884 0.055406
0.199900 0.182657 0.048435
0.234474 0.188351 0.034127
0.266950 0.194007 0.018752
0.298278 0.200217 0.007060
0.329279 0.206036 0.000787
0.360179 0.211483 0.000268
0.391380 0.216116 0.000044
0.422385 0.220151 0.000018
0.452612 0.223840 0.000004
0.482085 0.227221 0.000002
0.509699 0.230334 0.000000
0.534279 0.232939 0.000000
0.557918 0.235444 0.000000
0.577776 0.237257 0.000000
0.595940 0.238802 0.000000
0.613475 0.240294 0.000000
0.628782 0.240925 0.000000
0.643561 0.241522 0.000000
0.657872 0.242099 0.000000
0.670484 0.242191 0.000000
0.682630 0.242246 0.000000
0.694422 0.242300 0.000000
0.000000 0.153640 0.074131
0.000000 0.154808 0.074154
0.000000 0.156574 0.073833
0.000002 0.159122 0.073570
0.000004 0.162462 0.073247
0.001050 0.166357 0.071924
0.010126 0.170900 0.068852
0.053023 0.177359 0.065405
0.089449 0.184754 0.062096
0.124911 0.192149 0.057928
0.161771 0.199155 0.051740
0.201975 0.205569 0.040444
0.238742 0.212265 0.024222
0.273228 0.219009 0.009001
0.306277 0.226299 0.003075
0.338575 0.232931 0.000025
0.370327 0.238912 0.000030
0.402264 0.244045 0.000023
0.433918 0.248550 0.000007
0.464729 0.252667 0.000000
0.494730 0.256437 0.000000
0.522833 0.259913 0.000000
0.547831 0.262836 0.000000
0.571871 0.265647 0.000000
0.592033 0.267740 0.000000
0.610463 0.269552 0.000000
0.628253 0.271300 0.000000
0.643729 0.272177 0.000000
0.658668 0.273010 0.000000
0.673134 0.273817 0.000000
0.685875 0.274159 0.000000
0.698143 0.274458 0.000000
0.710055 0.274749 0.000000
0.000000 0.170754 0.076425
0.000000 0.172077 0.076432
0.000000 0.174079 0.076028
0.000000 0.176952 0.075609
0.000001 0.180700 0.075012
0.000006 0.185054 0.073270
0.000000 0.190100 0.069738
0.035292 0.196902 0.065094
0.077964 0.204858 0.060770
0.120154 0.212886 0.055264
0.160857 0.220544 0.046768
0.203674 0.227650 0.030558
0.242769 0.235439 0.014674
0.279322 0.243314 0.001902
0.313924 0.251483 0.000647
0.347432 0.258802 0.000000
0.380037 0.265270 0.000000
0.412703 0.270868 0.000000
0.444996 0.275817 0.000000
0.476374 0.280318 0.000000
0.506879 0.284421 0.000000
0.535449 0.288205 0.000000
0.560847 0.291393 0.000000
0.585274 0.294460 0.000000
0.605733 0.296798 0.000000
0.624424 0.298845 0.000000
0.642467 0.300821 0.000000
0.658109 0.301916 0.000000
0.673209 0.302960 0.000000
0.687831 0.303971 0.000000
0.700705 0.304516 0.000000
0.713101 0.305012 0.000000
0.725137 0.305494 0.000000
0.000000 0.187495 0.078663
0.000000 0.188899 0.078561
0.000000 0.191069 0.077915
0.000000 0.194214 0.077157
0.000001 0.198353 0.076135
0.000006 0.203176 0.073880
0.000000 0.208821 0.069675
0.012000 0.216055 0.064189
0.060919 0.224462 0.058533
0.112706 0.233040 0.050134
0.158779 0.241392 0.037489
0.204954 0.249474 0.016722
0.246523 0.258422 0.006357
0.285043 0.267372 0.000647
0.320845 0.276126 0.000222
0.355459 0.283997 0.000002
0.389079 0.290988 0.000001
0.422528 0.297025 0.000000
0.455439 0.302352 0.000000
0.487396 0.307212 0.000000
0.518445 0.311654 0.000000
0.547510 0.315756 0.000000
0.573309 0.319228 0.000000
0.598120 0.322567 0.000000
0.618868 0.325137 0.000000
0.637810 0.327396 0.000000
0.656094 0.329576 0.000000
0.671921 0.330861 0.000000
0.687198 0.332090 0.000000
0.701991 0.333279 0.000000
0.715014 0.334006 0.000000
0.727552 0.334680 0.000000
0.739727 0.335335 0.000000
0.000000 0.204064 0.079951
0.000000 0.205599 0.079719
0.000000 0.207988 0.078922
0.000000 0.211440 0.077947
0.000001 0.215972 0.076621
0.000004 0.221274 0.073937
0.000000 0.227488 0.069021
0.000012 0.235230 0.062483
0.040144 0.244025 0.054235
0.096832 0.253169 0.041633
0.155731 0.262343 0.025440
0.205260 0.271600 0.007382
0.249357 0.281569 0.001567
0.289913 0.291403 0.000011
0.326978 0.300749 0.000006
0.362683 0.309169 0.000002
0.397219 0.316667 0.000001
0.431416 0.323149 0.000000
0.464953 0.328876 0.000000
0.497496 0.334111 0.000000
0.529093 0.338905 0.000000
0.558658 0.343337 0.000000
0.584855 0.347097 0.000000
0.610049 0.350713 0.000000
0.631092 0.353524 0.000000
0.650295 0.356007 0.000000
0.668830 0.358404 0.000000
0.684845 0.359884 0.000000
0.700303 0.361301 0.000000
0.715271 0.362673 0.000000
0.728425 0.363553 0.000000
0.741089 0.364374 0.000000
0.753385 0.365171 0.000000
0.000000 0.220583 0.080231
0.000000 0.222301 0.079846
0.000000 0.224968 0.078993
0.000000 0.228765 0.077930
0.000000 0.233697 0.076426
0.000001 0.239490 0.073401
0.000000 0.246248 0.067728
0.000036 0.254581 0.059904
0.015206 0.263699 0.047694
0.071807 0.273432 0.029454
0.151618 0.283574 0.010330
0.204523 0.294225 0.002783
0.251227 0.305077 0.000516
0.293911 0.315597 0.000033
0.332316 0.325548 0.000012
0.369106 0.334518 0.000001
0.404460 0.342509 0.000000
0.439373 0.349448 0.000000
0.473548 0.355599 0.000000
0.506688 0.361230 0.000000
0.538845 0.366396 0.000000
0.568916 0.371171 0.000000
0.595512 0.375225 0.000000
0.621090 0.379124 0.000000
0.642439 0.382190 0.000000
0.661914 0.384913 0.000000
0.680714 0.387541 0.000000
0.696922 0.389223 0.000000
0.712565 0.390835 0.000000
0.727714 0.392396 0.000000
0.740983 0.393398 0.000000
0.753754 0.394334 0.000000
0.766155 0.395243 0.000000
0.000000 0.237432 0.079711
0.000000 0.239350 0.079264
0.000000 0.242282 0.078244
0.000000 0.246401 0.076842
0.000000 0.251712 0.074823
0.000000 0.258014 0.071265
0.000000 0.265323 0.064791
0.000046 0.274259 0.053433
0.003672 0.284063 0.036541
0.056416 0.294676 0.018149
0.141599 0.305830 0.003079
0.201840 0.317484 0.000701
0.251923 0.329100 0.000083
0.296560 0.340281 0.000030
0.336352 0.350853 0.000010
0.374313 0.360396 0.000000
0.410619 0.368914 0.000000
0.446341 0.376337 0.000000
0.481222 0.382939 0.000000
0.514990 0.388990 0.000000
0.547708 0.394549 0.000000
0.578290 0.399691 0.000000
0.605294 0.404063 0.000000
0.631265 0.408269 0.000000
0.652919 0.411594 0.000000
0.672662 0.414556 0.000000
0.691721 0.417415 0.000000
0.708132 0.419292 0.000000
0.723972 0.421092 0.000000
0.739310 0.422836 0.000000
0.752714 0.423977 0.000000
0.765612 0.425045 0.000000
0.778135 0.426082 0.000000
0.000000 0.254287 0.078666
0.000000 0.256411 0.078219
0.000000 0.259598 0.076959
0.000000 0.264018 0.075057
0.000000 0.269690 0.072305
0.000000 0.276509 0.068093
0.000000 0.284363 0.060803
0.000047 0.293905 0.044461
0.001179 0.304626 0.022469
0.047612 0.316302 0.007569
0.127787 0.328485 0.001136
0.197900 0.340870 0.000316
0.251833 0.353160 0.000066
0.298280 0.364978 0.000009
0.339471 0.376172 0.000003
0.378648 0.386296 0.000000
0.415981 0.395356 0.000000
0.452564 0.403277 0.000000
0.488186 0.410340 0.000000
0.522596 0.416823 0.000000
0.555868 0.422786 0.000000
0.586956 0.428304 0.000000
0.614371 0.433006 0.000000
0.640737 0.437529 0.000000
0.662690 0.441115 0.000000
0.682695 0.444312 0.000000
0.702006 0.447397 0.000000
0.718625 0.449463 0.000000
0.734665 0.451446 0.000000
0.750197 0.453365 0.000000
0.763746 0.454654 0.000000
0.776782 0.455863 0.000000
0.789440 0.457037 0.000000
0.000000 0.270751 0.077008
0.000000 0.273063 0.076434
0.000000 0.276484 0.074904
0.000000 0.281213 0.072618
0.000000 0.287267 0.069304
0.000000 0.294548 0.063958
0.000000 0.302940 0.053377
0.000036 0.313291 0.032927
0.000016 0.325081 0.012484
0.037023 0.337705 0.002037
0.107524 0.350653 0.000196
0.191909 0.363696 0.000108
0.250901 0.376645 0.000044
0.299327 0.389100 0.000000
0.341948 0.400906 0.000000
0.382344 0.411599 0.000000
0.420682 0.421186 0.000000
0.458108 0.429587 0.000000
0.494455 0.437094 0.000000
0.529518 0.443996 0.000000
0.563378 0.450357 0.000000
0.595007 0.456247 0.000000
0.622870 0.461282 0.000000
0.649667 0.466123 0.000000
0.671945 0.469970 0.000000
0.692233 0.473403 0.000000
0.711817 0.476718 0.000000
0.728624 0.478954 0.000000
0.744844 0.481099 0.000000
0.760551 0.483177 0.000000
0.774243 0.484595 0.000000
0.787415 0.485928 0.000000
0.800205 0.487223 0.000000
0.000000 0.286832 0.074823
0.000000 0.289315 0.074013
0.000000 0.292953 0.072187
0.000000 0.297996 0.069617
0.000000 0.304449 0.065892
0.000000 0.312146 0.059000
0.000000 0.321068 0.042994
0.000015 0.332402 0.019202
0.000007 0.345388 0.006066
0.024915 0.358859 0.000893
0.081726 0.372340 0.000126
0.184157 0.385977 0.000054
0.249244 0.399570 0.000019
0.299789 0.412662 0.000000
0.343861 0.425070 0.000000
0.385477 0.436320 0.000000
0.424797 0.446419 0.000000
0.463049 0.455284 0.000000
0.500107 0.463218 0.000000
0.535830 0.470528 0.000000
0.570306 0.477280 0.000000
0.602503 0.483539 0.000000
0.630847 0.488905 0.000000
0.658106 0.494065 0.000000
0.680730 0.498174 0.000000
0.701318 0.501844 0.000000
0.721191 0.505388 0.000000
0.738168 0.507777 0.000000
0.754551 0.510070 0.000000
0.770416 0.512290 0.000000
0.784248 0.513822 0.000000
0.797555 0.515263 0.000000
0.810476 0.516662 0.000000
0.000000 0.301968 0.072544
0.000000 0.304616 0.071537
0.000000 0.308460 0.069392
0.000000 0.313794 0.066420
0.000000 0.320616 0.061927
0.000000 0.328721 0.052936
0.000000 0.338232 0.032309
0.000000 0.350532 0.008369
0.000001 0.364557 0.001266
0.015215 0.378787 0.000057
0.060840 0.392781 0.000068
0.176678 0.406956 0.000013
0.247062 0.421150 0.000000
0.300048 0.434842 0.000000
0.345535 0.447819 0.000000
0.388326 0.459594 0.000000
0.428576 0.470176 0.000000
0.467620 0.479482 0.000000
0.505369 0.487821 0.000000
0.541726 0.495519 0.000000
0.576783 0.502642 0.000000
0.609515 0.509249 0.000000
0.638304 0.514926 0.000000
0.665991 0.520386 0.000000
0.688936 0.524740 0.000000
0.709801 0.528633 0.000000
0.729942 0.532390 0.000000
0.747095 0.534929 0.000000
0.763647 0.537366 0.000000
0.779674 0.539726 0.000000
0.793640 0.541366 0.000000
0.807076 0.542911 0.000000
0.820121 0.544411 0.000000
0.000000 0.315651 0.069805
0.000000 0.318460 0.068701
0.000000 0.322494 0.066145
0.000000 0.328080 0.062396
0.000000 0.335216 0.056053
0.000000 0.343739 0.043208
0.000000 0.354059 0.019880
0.000000 0.367350 0.004903
0.000006 0.382060 0.000695
0.011598 0.396853 0.000035
0.052272 0.411352 0.000037
0.169360 0.425942 0.000007
0.243201 0.440666 0.000000
0.299752 0.454905 0.000000
0.346665 0.468404 0.000000
0.390602 0.480658 0.000000
0.431703 0.491677 0.000000
0.471511 0.501390 0.000000
0.509953 0.510112 0.000000
0.546919 0.518172 0.000000
0.582509 0.525637 0.000000
0.615724 0.532563 0.000000
0.644894 0.538520 0.000000
0.672947 0.544249 0.000000
0.696165 0.548821 0.000000
0.717268 0.552909 0.000000
0.737638 0.556856 0.000000
0.754995 0.559548 0.000000
0.771744 0.562132 0.000000
0.787963 0.564635 0.000000
0.802058 0.566379 0.000000
0.815615 0.568023 0.000000
0.828778 0.569619 0.000000
0.000000 0.328810 0.067171
0.000000 0.331774 0.065974
0.000000 0.335991 0.063023
0.000000 0.341818 0.058526
0.000000 0.349257 0.050405
0.000000 0.358182 0.033852
0.000000 0.369281 0.007927
0.000000 0.383525 0.001571
0.000011 0.398893 0.000147
0.008119 0.414228 0.000014
0.044031 0.429211 0.000007
0.162322 0.444201 0.000001
0.239488 0.459436 0.000000
0.299467 0.474200 0.000000
0.347751 0.488200 0.000000
0.392789 0.500914 0.000000
0.434711 0.512354 0.000000
0.475253 0.522459 0.000000
0.514362 0.531549 0.000000
0.551913 0.539957 0.000000
0.588016 0.547752 0.000000
0.621695 0.554985 0.000000
0.651231 0.561211 0.000000
0.679637 0.567199 0.000000
0.703118 0.571980 0.000000
0.724449 0.576257 0.000000
0.745039 0.580385 0.000000
0.762593 0.583225 0.000000
0.779532 0.585950 0.000000
0.795934 0.588590 0.000000
0.810154 0.590435 0.000000
0.823828 0.592174 0.000000
0.837104 0.593862 0.000000
0.000000 0.340195 0.063998
0.000000 0.343300 0.062418
0.000000 0.347681 0.058652
0.000000 0.353724 0.051741
0.000000 0.361482 0.040222
0.000000 0.370963 0.023893
0.000000 0.382782 0.003590
0.000000 0.397623 0.000534
0.000009 0.413481 0.000008
0.006857 0.429266 0.000006
0.040190 0.444669 0.000000
0.154723 0.460003 0.000000
0.234641 0.475674 0.000000
0.298671 0.490888 0.000000
0.348227 0.505318 0.000000
0.394301 0.518432 0.000000
0.437015 0.530241 0.000000
0.478211 0.540689 0.000000
0.517874 0.550100 0.000000
0.555932 0.558816 0.000000
0.592500 0.566907 0.000000
0.626602 0.574417 0.000000
0.656473 0.580889 0.000000
0.685200 0.587113 0.000000
0.708936 0.592093 0.000000
0.730495 0.596553 0.000000
0.751305 0.600857 0.000000
0.768999 0.603828 0.000000
0.786072 0.606680 0.000000
0.802604 0.609442 0.000000
0.816950 0.611390 0.000000
0.830746 0.613226 0.000000
0.844142 0.615010 0.000000
0.000000 0.350737 0.060724
0.000000 0.353975 0.058675
0.000000 0.358512 0.053977
0.000000 0.364755 0.044166
0.000000 0.372832 0.028800
0.000000 0.382904 0.013969
0.000000 0.395408 0.001835
0.000000 0.410716 0.000270
0.000004 0.426997 0.000006
0.006347 0.443193 0.000003
0.037871 0.458985 0.000000
0.147118 0.474638 0.000000
0.229537 0.490711 0.000000
0.297727 0.506339 0.000000
0.348492 0.521166 0.000000
0.395556 0.534650 0.000000
0.439037 0.546803 0.000000
0.480845 0.557569 0.000000
0.521013 0.567278 0.000000
0.559541 0.576282 0.000000
0.596547 0.584652 0.000000
0.631048 0.592423 0.000000
0.661235 0.599128 0.000000
0.690267 0.605575 0.000000
0.714250 0.610747 0.000000
0.736031 0.615382 0.000000
0.757057 0.619857 0.000000
0.774868 0.622951 0.000000
0.792054 0.625922 0.000000
0.808695 0.628799 0.000000
0.823165 0.630847 0.000000
0.837083 0.632780 0.000000
0.850596 0.634657 0.000000
0.000000 0.360914 0.057564
0.000000 0.364280 0.055063
0.000000 0.368966 0.049464
0.000000 0.375404 0.036853
0.000000 0.383788 0.017775
0.000000 0.394431 0.004390
0.000000 0.407597 0.000140
0.000000 0.423355 0.000014
0.000000 0.440044 0.000004
0.005854 0.456637 0.000000
0.035633 0.472804 0.000000
0.139777 0.488764 0.000000
0.224610 0.505226 0.000000
0.296817 0.521254 0.000000
0.348747 0.536464 0.000000
0.396768 0.550305 0.000000
0.440988 0.562789 0.000000
0.483388 0.573863 0.000000
0.524042 0.583861 0.000000
0.563024 0.593143 0.000000
0.600454 0.601781 0.000000
0.635340 0.609804 0.000000
0.665832 0.616733 0.000000
0.695158 0.623396 0.000000
0.719379 0.628752 0.000000
0.741375 0.633558 0.000000
