tools/color/sRGB_to_2383.cube
# sRGB in -> k2383.cube print look out
# exposure -0.30 stops, grey_cv=445.0
LUT_3D_SIZE 9
DOMAIN_MIN 0 0 0
DOMAIN_MAX 1 1 1
0.028545 0.035122 0.042781
0.039912 0.038683 0.044588
0.091127 0.050066 0.044679
0.175356 0.058181 0.036981
0.263525 0.058036 0.008507
0.361392 0.048644 0.000038
0.440935 0.020497 0.000000
0.501504 0.000964 0.000000
0.551716 0.000020 0.000000
0.024897 0.048672 0.048918
0.041868 0.053193 0.050792
0.098949 0.065138 0.050506
0.192749 0.076196 0.040969
0.289735 0.080833 0.008456
0.394000 0.078817 0.000035
0.477701 0.070283 0.000000
0.538177 0.049545 0.000000
0.587363 0.013077 0.000000
0.000000 0.088823 0.062328
0.006438 0.093955 0.062367
0.106560 0.110053 0.059980
0.218218 0.127678 0.046818
0.329118 0.140956 0.003492
0.443403 0.150416 0.000012
0.533820 0.154707 0.000000
0.597107 0.154056 0.000000
0.646759 0.150546 0.000000
0.000000 0.153640 0.074131
0.000004 0.162462 0.073247
0.089449 0.184754 0.062096
0.238742 0.212265 0.024222
0.370327 0.238912 0.000030
0.494730 0.256437 0.000000
0.592033 0.267740 0.000000
0.658668 0.273010 0.000000
0.710055 0.274749 0.000000
0.000000 0.220583 0.080231
0.000000 0.233697 0.076426
0.015206 0.263699 0.047694
0.251227 0.305077 0.000516
0.404460 0.342509 0.000000
0.538845 0.366396 0.000000
0.642439 0.382190 0.000000
0.712565 0.390835 0.000000
0.766155 0.395243 0.000000
0.000000 0.286832 0.074823
0.000000 0.304449 0.065892
0.000007 0.345388 0.006066
0.249244 0.399570 0.000019
0.424797 0.446419 0.000000
0.570306 0.477280 0.000000
0.680730 0.498174 0.000000
0.754551 0.510070 0.000000
0.810476 0.516662 0.000000
0.000000 0.340195 0.063998
0.000000 0.361482 0.040222
0.000009 0.413481 0.000008
0.234641 0.475674 0.000000
0.437015 0.530241 0.000000
0.592500 0.566907 0.000000
0.708936 0.592093 0.000000
0.786072 0.606680 0.000000
0.844142 0.615010 0.000000
0.000000 0.379242 0.044086
0.000000 0.404475 0.008071
0.000000 0.463721 0.000004
0.206567 0.531540 0.000000
0.443209 0.591766 0.000000
0.606302 0.632935 0.000000
0.727256 0.661605 0.000000
0.807065 0.678525 0.000000
0.866904 0.688492 0.000000
0.000000 0.411304 0.012400
0.000000 0.440572 0.000481
0.000000 0.504487 0.000000
0.175472 0.576872 0.000000
0.446045 0.641592 0.000000
0.615234 0.686529 0.000000
0.739786 0.718201 0.000000
0.821718 0.737184 0.000000
0.883240 0.748682 0.000000
0.028201 0.036123 0.055062
0.039111 0.040167 0.057241
0.092468 0.051702 0.058432
0.178866 0.059375 0.054897
0.268675 0.057965 0.042549
0.364045 0.020662 0.011021
0.446184 0.000213 0.001987
0.508207 0.000001 0.001103
0.558960 0.000000 0.000102
0.018570 0.050898 0.061915
0.039532 0.055441 0.063947
0.100104 0.067279 0.064752
0.196568 0.078641 0.060152
0.294814 0.081714 0.046086
0.396345 0.067222 0.011189
0.480707 0.046353 0.001194
0.542821 0.014762 0.000004
0.593994 0.002559 0.000000
0.000005 0.093719 0.078767
0.002519 0.098939 0.078648
0.106704 0.115150 0.077474
0.222146 0.132953 0.069507
0.334010 0.144271 0.048578
0.445893 0.147290 0.006681
0.537130 0.149716 0.000231
0.601036 0.147904 0.000000
0.651084 0.143400 0.000000
0.000000 0.161461 0.093344
0.000008 0.170417 0.092788
0.077691 0.192958 0.084768
0.241178 0.220490 0.067809
0.372355 0.242087 0.017414
0.497646 0.258173 0.000930
0.596118 0.269004 0.000002
0.663457 0.273939 0.000000
0.715330 0.275445 0.000006
0.000000 0.230880 0.102514
0.000000 0.244497 0.100649
0.007793 0.275203 0.083809
0.248901 0.312355 0.030559
0.405497 0.348069 0.001218
0.541869 0.371906 0.000000
0.646738 0.387539 0.000000
0.717771 0.396124 0.000001
0.771954 0.400423 0.000000
0.000000 0.299717 0.104371
0.000000 0.317815 0.099495
0.000030 0.357253 0.064589
0.241323 0.407588 0.002425
0.424770 0.454933 0.000001
0.573118 0.486029 0.000015
0.685164 0.506932 0.000001
0.759893 0.518734 0.000000
0.816331 0.525103 0.000000
0.000000 0.354831 0.102459
0.000000 0.376505 0.093957
0.000000 0.423790 0.027652
0.215075 0.485345 0.000003
0.435357 0.540647 0.000009
0.594583 0.577653 0.000000
0.713002 0.602950 0.000000
0.791189 0.617455 0.000000
0.849674 0.625508 0.000000
0.000000 0.394550 0.098143
0.000000 0.418920 0.084830
0.000000 0.473387 0.007606
0.178327 0.541547 0.000002
0.440088 0.602343 0.000001
0.607347 0.643937 0.000000
0.730648 0.672853 0.000000
0.811588 0.689776 0.000000
0.871952 0.699552 0.000000
0.000000 0.426321 0.092829
0.000000 0.452895 0.070551
0.000000 0.513736 0.002822
0.161763 0.586616 0.000015
0.440943 0.651667 0.000000
0.615184 0.697123 0.000000
0.742241 0.729168 0.000000
0.825486 0.748272 0.000000
0.887607 0.759720 0.000000
0.014962 0.036445 0.102928
0.035077 0.039874 0.106239
0.091686 0.051584 0.111699
0.181009 0.058740 0.114974
0.273001 0.056590 0.115062
0.370130 0.012085 0.112311
0.452996 0.000022 0.112915
0.515197 0.000000 0.113844
0.566128 0.000000 0.114697
0.000269 0.054453 0.114928
0.023756 0.058470 0.116908
0.097967 0.070092 0.122554
0.198329 0.081120 0.125921
0.299061 0.083438 0.125526
0.401207 0.063518 0.121032
0.484116 0.014882 0.116791
0.547523 0.001096 0.116489
0.599265 0.000001 0.116387
0.000000 0.101737 0.139251
0.000097 0.107577 0.141243
0.097580 0.123466 0.143243
0.221954 0.140882 0.145746
0.337542 0.152012 0.143843
0.449610 0.151525 0.137958
0.537569 0.145397 0.130485
0.598730 0.134707 0.123153
0.646528 0.118452 0.115558
0.000000 0.175039 0.162860
0.000011 0.184989 0.165513
0.039165 0.206521 0.163146
0.235965 0.233545 0.162461
0.372732 0.253920 0.156902
0.496192 0.263333 0.147857
0.591469 0.267009 0.136661
0.656412 0.266498 0.124942
0.706498 0.263475 0.113831
0.000000 0.249117 0.181018
0.000000 0.263218 0.183450
0.000088 0.293906 0.179342
0.235678 0.329274 0.171610
0.397704 0.358156 0.160716
0.532997 0.374305 0.144339
0.635553 0.383602 0.124945
0.704639 0.387648 0.108884
0.757308 0.388396 0.091177
0.000000 0.321872 0.193771
0.000000 0.339834 0.194848
0.000006 0.379491 0.187964
0.198285 0.422825 0.171191
0.407462 0.460460 0.149317
0.556360 0.483768 0.119348
0.667229 0.499022 0.087423
0.741076 0.507449 0.068420
0.796923 0.511423 0.048076
0.000000 0.379154 0.201814
0.000000 0.400973 0.202269
0.000000 0.447701 0.192592
0.151847 0.497770 0.166973
0.409933 0.542433 0.131633
0.571854 0.572022 0.086713
0.690732 0.592846 0.054303
0.768879 0.604849 0.015639
0.827979 0.612008 0.001849
0.000000 0.420124 0.206912
0.000000 0.444545 0.206391
0.000000 0.496212 0.194183
0.124307 0.551092 0.159644
0.408248 0.600950 0.112157
0.580639 0.636010 0.065146
0.705468 0.661318 0.014038
0.787777 0.677470 0.000169
0.849347 0.687038 0.000001
0.000000 0.452575 0.210155
0.000000 0.479236 0.208580
0.000000 0.534601 0.194111
0.085399 0.593359 0.151138
0.404099 0.647741 0.091875
0.585157 0.687298 0.036052
0.715265 0.717336 0.000471
0.800475 0.736222 0.000000
0.863922 0.747578 0.000000
0.000297 0.011882 0.174844
0.025022 0.023029 0.179819
0.091155 0.036515 0.190820
0.183756 0.045276 0.200193
0.277759 0.033514 0.205781
0.379306 0.002071 0.210809
0.463636 0.000014 0.216339
0.526149 0.000000 0.220784
0.577083 0.000000 0.224192
0.000000 0.035704 0.191259
0.002324 0.051170 0.196575
0.094688 0.066608 0.207567
0.199956 0.077015 0.217645
0.303470 0.078167 0.223391
0.407577 0.048291 0.225249
0.493179 0.006320 0.227848
0.557482 0.000814 0.231693
0.609412 0.000001 0.234791
0.000000 0.102663 0.226470
0.000000 0.110784 0.232554
0.075529 0.130996 0.237914
0.219453 0.147803 0.248163
0.340064 0.158687 0.253721
0.454562 0.157878 0.255056
0.543945 0.151416 0.254417
0.605949 0.141121 0.253005
0.654306 0.124916 0.251029
0.000000 0.188812 0.262115
0.000000 0.197927 0.267997
0.004097 0.221968 0.271588
0.224910 0.248047 0.277175
0.370881 0.268250 0.281558
0.498208 0.277303 0.281789
0.595650 0.280769 0.280176
0.661747 0.280370 0.278056
0.712454 0.277419 0.275591
0.000000 0.268844 0.289297
0.000000 0.283463 0.296221
0.000000 0.315691 0.300622
0.204309 0.349000 0.299190
0.389746 0.377537 0.301916
0.531184 0.393480 0.300559
0.636735 0.402483 0.297591
0.707042 0.406238 0.294488
0.760343 0.406771 0.291234
0.000000 0.344936 0.308372
0.000000 0.364147 0.315643
0.000000 0.404547 0.319458
0.141089 0.446099 0.313711
0.392060 0.483051 0.313154
0.549527 0.505923 0.309639
0.663974 0.520229 0.304668
0.738731 0.527266 0.299959
0.794633 0.529895 0.295488
0.000000 0.406229 0.324432
0.000000 0.427511 0.329338
0.000000 0.474984 0.332548
0.082119 0.523672 0.324139
0.386759 0.567105 0.319871
0.559871 0.595496 0.314023
0.682209 0.613927 0.306995
0.760912 0.623506 0.300732
0.819315 0.627752 0.294873
0.000000 0.448585 0.334269
0.000000 0.473080 0.339469
0.000000 0.525075 0.341900
0.057168 0.578649 0.331314
0.378299 0.626700 0.323525
0.564169 0.659223 0.315634
0.692353 0.680833 0.306745
0.774205 0.692681 0.299171
0.834715 0.698654 0.292385
0.000000 0.481937 0.341096
0.000000 0.508721 0.346268
0.000000 0.564174 0.347974
0.038394 0.621889 0.336015
0.367201 0.673725 0.325206
0.564755 0.709669 0.315375
0.697541 0.733957 0.304807
0.782076 0.747878 0.296074
0.844515 0.755552 0.288984
0.000000 0.000000 0.250273
0.002578 0.000076 0.255225
0.090953 0.001204 0.268691
0.188739 0.001662 0.282885
0.286380 0.000496 0.293384
0.390497 0.000021 0.302670
0.474744 0.000000 0.310125
0.537221 0.000000 0.316193
0.588215 0.000000 0.321124
0.000000 0.000773 0.267805
0.000944 0.010067 0.273816
0.092048 0.051037 0.289424
0.202172 0.061395 0.304885
0.307944 0.057939 0.314740
0.415029 0.015936 0.321413
0.503394 0.001834 0.328239
0.567606 0.000000 0.333604
0.619545 0.000000 0.337825
0.000000 0.085304 0.306673
0.000003 0.100701 0.316637
0.046875 0.134456 0.328602
0.216714 0.151011 0.344453
0.342170 0.161230 0.354954
0.458700 0.159738 0.360188
0.549196 0.152668 0.362623
0.611638 0.141688 0.363396
0.660205 0.124920 0.363121
0.000000 0.192673 0.354572
0.000000 0.206053 0.366181
0.000020 0.232660 0.374375
0.211984 0.259647 0.382474
0.367885 0.279457 0.392887
0.498975 0.288334 0.397637
0.598256 0.291614 0.399521
0.665178 0.291181 0.399956
0.716283 0.288380 0.399458
0.000000 0.283068 0.391312
0.000000 0.297893 0.400455
0.000000 0.332062 0.412018
0.154432 0.365589 0.413193
0.380456 0.393803 0.422682
0.527844 0.409598 0.426859
0.636146 0.418475 0.428204
0.707567 0.422193 0.428133
0.761385 0.422686 0.427092
0.000000 0.365025 0.417990
0.000000 0.382830 0.426281
0.000000 0.424671 0.437360
0.088062 0.465918 0.435916
0.375074 0.502366 0.442241
0.541682 0.524986 0.445394
0.659658 0.539007 0.445875
0.735867 0.545936 0.445040
0.792647 0.548554 0.443315
0.000000 0.426846 0.435384
0.000000 0.449247 0.444893
0.000000 0.497480 0.455509
0.047157 0.546104 0.453493
0.361223 0.588434 0.455806
0.547647 0.616518 0.457904
0.674379 0.634557 0.457441
0.754995 0.644013 0.455886
0.814437 0.648246 0.453569
0.000000 0.470696 0.448323
0.000000 0.496220 0.458116
0.000000 0.548799 0.468345
0.014898 0.602184 0.465182
0.343711 0.648856 0.464645
0.548465 0.681133 0.465822
0.681822 0.702411 0.464541
0.765884 0.714117 0.462393
0.827680 0.720039 0.459665
0.000000 0.505344 0.457269
0.000000 0.532669 0.467260
0.000000 0.588443 0.477020
0.000687 0.646008 0.473509
0.325739 0.696192 0.470539
0.546046 0.731978 0.470819
0.684821 0.756059 0.468803
0.771743 0.769833 0.466187
0.835578 0.777391 0.463183
0.000000 0.000000 0.314342
0.000047 0.000000 0.320855
0.084901 0.000013 0.333617
0.193659 0.000017 0.351582
0.294955 0.000013 0.365026
0.399747 0.000000 0.376247
0.484445 0.000000 0.385388
0.546254 0.000000 0.391678
0.597008 0.000000 0.396967
0.000000 0.000007 0.335078
0.000001 0.000124 0.342235
0.088606 0.013467 0.356234
0.204617 0.017853 0.375302
0.313098 0.013617 0.388934
0.423236 0.002745 0.399452
0.512227 0.000000 0.407977
0.576294 0.000000 0.414076
0.627551 0.000016 0.418495
0.000000 0.049325 0.370548
0.000002 0.075076 0.382949
0.019099 0.131915 0.401402
0.214542 0.150189 0.421104
0.343674 0.159805 0.435386
0.461587 0.157673 0.443226
0.552776 0.149550 0.447534
0.615566 0.136216 0.449647
0.664482 0.117810 0.450454
0.000000 0.187835 0.428478
0.000000 0.201634 0.440703
0.000027 0.236245 0.455506
0.195235 0.266960 0.465527
0.365151 0.286244 0.480125
0.499118 0.294898 0.487861
0.599752 0.298068 0.491969
0.667164 0.297491 0.493881
0.718578 0.294525 0.494343
0.000000 0.288611 0.471033
0.000000 0.305791 0.484184
0.000000 0.340887 0.498763
0.129196 0.376918 0.502415
0.371978 0.404593 0.515298
0.524271 0.420310 0.522855
0.634791 0.429206 0.526809
0.707116 0.432804 0.528405
0.761418 0.433146 0.528469
0.000000 0.372930 0.500129
0.000000 0.394525 0.513834
0.000000 0.436918 0.528579
0.059381 0.479658 0.530581
0.359516 0.515344 0.539504
0.534200 0.537806 0.546466
0.655197 0.551655 0.549806
0.732674 0.558472 0.550946
0.790179 0.560999 0.550628
0.000000 0.439511 0.523046
0.000000 0.463376 0.535626
0.000000 0.511970 0.550241
0.014019 0.561261 0.551807
0.336567 0.602800 0.556767
0.536458 0.630668 0.563084
0.667099 0.648439 0.565766
0.749282 0.657757 0.566455
0.809740 0.661946 0.565823
0.000000 0.486109 0.538410
0.000000 0.510586 0.549437
0.000000 0.564194 0.564999
0.000011 0.618367 0.566425
0.312933 0.663955 0.568169
0.534466 0.695998 0.573885
0.672450 0.717001 0.576081
0.758442 0.728610 0.576479
0.821313 0.734492 0.575665
0.000000 0.520306 0.547811
0.000000 0.548655 0.560831
0.000000 0.604202 0.574764
0.000000 0.662500 0.576332
0.285602 0.711644 0.575820
0.529548 0.747228 0.581009
0.673773 0.771086 0.582837
0.762870 0.784781 0.583009
0.827982 0.792338 0.582105
0.000000 0.000000 0.365667
0.000000 0.000000 0.373392
0.073177 0.000000 0.385365
0.195764 0.000000 0.406239
0.300848 0.000000 0.422032
0.406924 0.000000 0.434774
0.491587 0.000000 0.444477
0.553908 0.000000 0.452163
0.604373 0.000000 0.457777
0.000000 0.000000 0.388947
0.000000 0.000006 0.397429
0.078201 0.002352 0.410665
0.206807 0.003028 0.432679
0.318797 0.002726 0.449204
0.429983 0.000400 0.461519
0.518842 0.000001 0.470753
0.583029 0.000000 0.477688
0.634388 0.000002 0.482580
0.000000 0.006079 0.423957
0.000000 0.038945 0.435862
0.008955 0.125241 0.459174
0.212536 0.147630 0.481674
0.344691 0.156519 0.498848
0.463597 0.153445 0.508642
0.555302 0.143286 0.514334
0.618497 0.127213 0.517493
0.667762 0.109486 0.519111
0.000000 0.178188 0.485112
0.000000 0.195336 0.499002
0.000016 0.235511 0.518568
0.177321 0.271583 0.530861
0.362282 0.290414 0.548495
0.498660 0.298908 0.558464
0.600431 0.301953 0.564204
0.668376 0.301185 0.567156
0.719980 0.298003 0.568312
0.000000 0.289665 0.534993
0.000000 0.307275 0.548655
0.000000 0.346731 0.567434
0.106192 0.384446 0.572127
0.364121 0.411940 0.587371
0.520744 0.427613 0.597379
0.633031 0.436469 0.603185
0.706235 0.439986 0.605966
0.760928 0.440209 0.606825
0.000000 0.380763 0.568936
0.000000 0.399677 0.581072
0.000000 0.444892 0.600335
0.037771 0.488852 0.604254
0.344950 0.524251 0.614694
0.527512 0.546617 0.624352
0.650934 0.560374 0.629705
0.729590 0.567125 0.632195
0.787740 0.569551 0.632822
0.000000 0.448819 0.592372
0.000000 0.471245 0.605246
0.000000 0.521614 0.624068
0.000018 0.571688 0.628381
0.314972 0.612748 0.634464
0.526758 0.640440 0.643636
0.660550 0.658021 0.648445
0.744182 0.667258 0.650644
0.805554 0.671385 0.651117
0.000000 0.494188 0.606902
0.000000 0.520485 0.621325
0.000000 0.574590 0.639787
0.000001 0.629451 0.644622
0.283396 0.674486 0.647443
0.522298 0.706328 0.656194
0.664253 0.727149 0.660722
0.751874 0.738672 0.662773
0.815773 0.744557 0.663223
0.000000 0.531175 0.618989
0.000000 0.558191 0.632439
0.000000 0.615547 0.650950
0.000059 0.674260 0.655831
0.243190 0.722579 0.656233
0.515317 0.757947 0.664580
0.664224 0.781623 0.668930
0.755301 0.795295 0.670931
0.821509 0.802893 0.671405
0.000000 0.000000 0.405720
0.000000 0.000000 0.414314
0.058537 0.000000 0.425999
0.196103 0.000000 0.448964
0.304294 0.000000 0.466379
0.412086 0.000000 0.480548
0.497109 0.000000 0.491049
0.559661 0.000000 0.499242
0.610183 0.000000 0.505045
0.000000 0.000000 0.431003
0.000000 0.000002 0.440409
0.064242 0.000468 0.453427
0.207473 0.000764 0.477692
0.322512 0.000550 0.496235
0.434792 0.000001 0.509781
0.524118 0.000000 0.520025
0.588424 0.000001 0.527514
0.640037 0.000000 0.532875
0.000000 0.000001 0.468508
0.000000 0.009511 0.479130
0.002545 0.116613 0.503433
0.210698 0.144051 0.528146
0.345009 0.152227 0.547455
0.464793 0.147569 0.558796
0.557039 0.134658 0.565671
0.620724 0.118157 0.569746
0.670343 0.095958 0.572004
0.000000 0.166404 0.527258
0.000000 0.184800 0.543026
0.000002 0.232803 0.566303
0.165203 0.273819 0.580335
0.359604 0.292478 0.600274
0.497852 0.300783 0.611979
0.600529 0.303663 0.618998
0.668940 0.302759 0.622833
0.720914 0.299450 0.624615
0.000000 0.288236 0.582432
0.000000 0.306743 0.597053
0.000000 0.348484 0.618454
0.079919 0.389032 0.624901
0.357185 0.416382 0.641764
0.517432 0.431971 0.653661
0.631152 0.440764 0.660865
0.705018 0.444232 0.664581
0.760226 0.444339 0.666059
0.000000 0.382016 0.617306
0.000000 0.402849 0.632578
0.000000 0.448789 0.653787
0.022076 0.494381 0.659712
0.332187 0.529792 0.671155
0.521595 0.552100 0.682895
0.647068 0.565841 0.689833
0.726711 0.572514 0.693336
0.785452 0.574867 0.694646
0.000000 0.452256 0.643154
0.000000 0.476229 0.658156
0.000000 0.527009 0.679013
0.000054 0.578016 0.685908
0.296453 0.619010 0.692516
0.518492 0.646611 0.703897
0.654926 0.664199 0.710480
0.739851 0.673397 0.713802
0.801943 0.677473 0.715022
0.000000 0.499880 0.660235
0.000000 0.525848 0.674375
0.000000 0.580891 0.695823
0.000212 0.636514 0.703205
0.252938 0.681274 0.706532
0.512019 0.713031 0.717595
0.657315 0.733829 0.723987
0.746444 0.745349 0.727253
0.811296 0.751223 0.728500
0.000000 0.536537 0.671493
0.000000 0.564887 0.687237
0.000000 0.622267 0.707129
0.000112 0.681708 0.715067
0.215219 0.729850 0.716259
0.503316 0.765057 0.726745
0.656182 0.788696 0.733037
0.748897 0.802380 0.736326
0.816158 0.809989 0.737649
0.000000 0.000000 0.439083
0.000000 0.000000 0.448353
0.040677 0.000000 0.460123
0.195517 0.000000 0.484525
0.306627 0.000000 0.503403
0.415478 0.000000 0.518483
0.501624 0.000000 0.530157
0.564226 0.000000 0.538580
0.614901 0.000000 0.544440
0.000000 0.000000 0.466032
0.000000 0.000000 0.476147
0.045868 0.000001 0.489255
0.207210 0.000001 0.515210
0.324994 0.000001 0.535384
0.438309 0.000000 0.549978
0.528434 0.000000 0.561212
0.592975 0.000000 0.569211
0.644363 0.000000 0.574329
0.000000 0.000015 0.505676
0.000000 0.000452 0.516607
0.002189 0.105764 0.539812
0.209036 0.139168 0.566393
0.344840 0.146849 0.587427
0.465414 0.139948 0.600088
0.558283 0.125205 0.608043
0.622423 0.107912 0.612874
0.672530 0.081018 0.615757
0.000000 0.153011 0.561687
0.000000 0.173849 0.578041
0.000000 0.228347 0.604719
0.151840 0.274587 0.620738
0.356851 0.293237 0.642546
0.496693 0.301311 0.655705
0.600160 0.303962 0.663800
0.669121 0.302943 0.668405
0.721520 0.299580 0.670763
0.000000 0.284469 0.619880
0.000000 0.303523 0.635582
0.000000 0.347704 0.659427
0.068760 0.391066 0.667736
0.351062 0.418998 0.686038
0.514142 0.434494 0.699521
0.629082 0.443183 0.707875
0.703671 0.446566 0.712364
0.759330 0.446589 0.714387
0.000000 0.382905 0.658299
0.000000 0.402577 0.672996
0.000000 0.450655 0.696961
0.012131 0.497698 0.704780
0.320889 0.533210 0.716948
0.516278 0.555459 0.730429
0.643578 0.569223 0.738709
0.724009 0.575852 0.743065
0.783377 0.578137 0.744921
0.000000 0.454201 0.684563
0.000000 0.477889 0.699970
0.000000 0.530026 0.723657
0.000023 0.582654 0.732961
0.278158 0.622930 0.739429
0.511188 0.650513 0.752692
0.650086 0.668175 0.760794
0.736049 0.677364 0.765046
0.798882 0.681418 0.766845
0.000000 0.502867 0.702505
0.000000 0.528857 0.717688
0.000000 0.584643 0.740657
0.000116 0.641291 0.750812
0.229244 0.685714 0.754340
0.503112 0.717402 0.767189
0.651363 0.738277 0.775192
0.741694 0.749818 0.779446
0.807428 0.755682 0.781291
0.000000 0.540253 0.713832
0.000000 0.568541 0.730490
0.000000 0.626706 0.752931
0.000022 0.686521 0.762550
0.192923 0.734754 0.764685
0.492918 0.769856 0.776880
0.649422 0.793536 0.784800
0.743429 0.807234 0.789098
0.811587 0.814850 0.791054
